ncols 93
nrows 126
xllcorner 63215
yllcorner 363330
cellsize 5
NODATA_value -9999
0 0 0 0 0 0 0 0 0 0 0 0 0 0 0 0 0 0 0 0 0 0 0 0 0 0 0 0 0 0 0 0 0 0 0 0 0 0 0 0 0 0 0 0 0 0 0 0 0 0 0 0 0 0 0 0 0 0 0 0 0 0 0 0 0 0 0 0 0 0 0 0 0 0 0 0 0 0 0 0 0 0 0 0 0 0 0 0 0 0 0 0 0
0 0 0 0 0 0 0 0 0 0 0 0 0 0 0 0 0 0 0 0 0 0 0 0 0 0 0 0 0 0 0 0 0 0 0 0 0 0 0 0 0 0 0 0 0 0 0 0 0 0 0 0 0 0 0 0 0 0 0 0 0 0 0 0 0 0 0 0 0 0 0 0 0 0 0 0 0 0 0 0 0 0 0 0 0 0 0 0 0 0 0 0 0
0 0 0 0 0 0 0 0 0 0 0 0 0 0 0 0 0 0 0 0 0 0 0 0 0 0 0 0 0 0 0 0 0 0 0 0 0 0 0 0 0 0 0 0 0 0 0 0 0 0 0 0 0 0 0 0 0 0 0 0 0 0 0 0 0 0 0 0 0 0 0 0 0 0 0 0 0 0 0 0 0 0 0 0 0 0 0 0 0 0 0 0 0
0 0 0 0 0 0 0 0 0 0 0 0 0 0 0 0 0 0 0 0 0 0 0 0 0 0 0 0 0 0 0 0 0 0 0 0 0 0 0 0 0 0 0 0 0 0 0 0 0 0 0 0 0 0 0 0 0 0 0 0 0 0 0 0 0 0 0 0 0 0 0 0 0 0 0 0 0 0 0 0 0 0 0 0 0 0 0 0 0 0 0 0 0
0 0 0 0 0 0 0 0 0 0 0 0 0 0 0 0 0 0 0 0 0 0 0 0 0 0 0 0 0 0 0 0 0 0 0 0 0 0 0 0 0 0 0 0 0 0 0 0 0 0 0 0 0 0 0 0 0 0 0 0 0 0 0 0 0 0 0 0 0 0 0 0 0 0 0 0 0 0 0 0 0 0 0 0 0 0 0 0 0 0 0 0 0
0 0 0 0 0 0 0 0 0 0 0 0 0 0 0 0 0 0 0 0 0 0 0 0 0 0 0 0 0 0 0 0 0 0 0 0 0 0 0 0 0 0 0 0 0 0 0 0 0 0 0 0 0 0 0 0 0 0 0 0 0 0 0 0 0 0 0 0 0 0 0 0 0 0 0 0 0 0 0 0 0 0 0 0 0 0 0 0 0 0 0 0 0
0 0 0 0 0 0 0 0 0 0 0 0 0 0 0 0 0 0 0 0 0 0 0 0 0 0 0 0 0 0 0 0 0 0 0 0 0 0 0 0 0 0 0 0 0 0 0 0 0 0 0 0 0 0 0 0 0 0 0 0 0 0 0 0 0 0 0 0 0 0 0 0 0 0 0 0 0 0 0 0 0 0 0 0 0 0 0 0 0 0 0 0 0
0 0 0 0 0 0 0 0 0 0 0 0 0 0 0 0 0 0 0 0 0 0 0 0 0 0 0 0 0 0 0 0 0 0 0 0 0 0 0 0 0 0 0 0 0 0 0 0 0 0 0 0 0 0 0 0 0 0 0 0 0 0 0 0 0 0 0 0 0 0 0 0 0 0 0 0 0 0 0 0 0 0 0 0 0 0 0 0 0 0 0 0 0
0 0 0 0 0 0 0 0 0 0 0 0 0 0 0 0 0 0 0 0 0 0 0 0 0 0 0 0 0 0 0 0 0 0 0 0 0 0 0 0 0 0 0 0 0 0 0 0 0 0 0 0 0 0 0 0 0 0 0 0 0 0 0 0 0 0 0 0 0 0 0 0 0 0 0 0 0 0 0 0 0 0 0 0 0 0 0 0 0 0 0 0 0
0 0 0 0 0 0 0 0 0 0 0 0 0 0 0 0 0 0 0 0 0 0 0 0 0 0 0 0 0 0 0 0 0 0 0 0 0 0 0 0 0 0 0 0 0 0 0 0 0 0 0 0 0 0 0 0 0 0 0 0 0 0 0 0 0 0 0 0 0 0 0 0 0 0 0 0 0 0 0 0 0 0 0 0 0 0 0 0 0 0 0 0 0
0 0 0 0 0 0 0 0 0 0 0 0 0 0 0 0 0 0 0 0 0 0 0 0 0 0 0 0 0 0 0 0 0 0 0 0 0 0 0 0 0 0 0 0 0 0 0 0 0 0 0 0 0 0 0 0 0 0 0 0 0 0 0 0 0 0 0 0 0 0 0 0 0 0 0 0 0 0 0 0 0 0 0 0 0 0 0 0 0 0 0 0 0
0 0 0 0 0 0 0 0 0 0 0 0 0 0 0 0 0 0 0 0 0 0 0 0 0 0 0 0 0 0 0 0 0 0 0 0 0 0 0 0 0 0 0 0 0 0 0 0 0 0 0 0 0 0 0 0 0 0 0 0 0 0 0 0 0 0 0 0 0 0 0 0 0 0 0 0 0 0 0 0 0 0 0 0 0 0 0 0 0 0 0 0 0
0 0 0 0 0 0 0 0 0 0 0 0 0 0 0 0 0 0 0 0 0 0 0 0 0 0 0 0 0 0 0 0 0 0 0 0 0 0 0 0 0 0 0 0 0 0 0 0 0 0 0 0 0 0 0 0 0 0 0 0 0 0 0 0 0 0 0 0 0 0 0 0 0 0 0 0 0 0 0 0 0 0 0 0 0 0 0 0 0 0 0 0 0
0 0 0 0 0 0 0 0 0 0 0 0 0 0 0 0 0 0 0 0 0 0 0 0 0 0 0 0 0 0 0 0 0 0 0 0 0 0 0 0 0 0 0 0 0 0 0 0 0 0 0 0 0 0 0 0 0 0 0 0 0 0 0 0 0 0 0 0 0 0 0 0 0 0 0 0 0 0 0 0 0 0 0 0 0 0 0 0 0 0 0 0 0
0 0 0 0 0 0 0 0 0 0 0 0 0 0 0 0 0 0 0 0 0 0 0 0 0 0 0 0 0 0 0 0 0 0 0 0 0 0 0 0 0 0 0 0 0 0 0 0 0 0 0 0 0 0 0 0 0 0 0 0 0 0 0 0 0 0 0 0 0 0 0 0 0 0 0 0 0 0 0 0 0 0 0 0 0 0 0 0 0 0 0 0 0
0 0 0 0 0 0 0 0 0 0 0 0 0 0 0 0 0 0 0 0 0 0 0 0 0 0 0 0 0 0 0 0 0 0 0 0 0 0 0 0 0 0 0 0 0 0 0 0 0 0 0 0 0 0 0 0 0 0 0 0 0 0 0 0 0 0 0 0 0 0 0 0 0 0 0 0 0 0 0 0 0 0 0 0 0 0 0 0 0 0 0 0 0
0 0 0 0 0 0 0 0 0 0 0 0 0 0 0 0 0 0 0 0 0 0 0 0 0 0 0 0 0 0 0 0 0 0 0 0 0 0 0 0 0 0 0 0 0 0 0 0 0.8 1.66 0 0 0 0 0 0 0 0 0 0 0 0 0 0 0 0 0 0 0 0 0 0 0 0 0 0 0 0 0 0 0 0 0 0 0 0 0 0 0 0 0 0 0
0 0 0 0 0 0 0 0 0 0 0 0 0 0 0 0 0 0 0 0 0 0 0 0 0 0 0 0 0 0 0 0 0 0 0 0 0 0 0 0 0 0 0 0 0 0 0 0.8 2.1 1.66 1.66 0 0 0 0 0 0 0 0 0 0 0 0 0 0 0 0 0 0 0 0 0 0 0 0 0 0 0 0 0 0 0 0 0 0 0 0 0 0 0 0 0 0
0 0 0 0 0 0 0 0 0 0 0 0 0 0 0 0 0 0 0 0 0 0 0 0 0 0 0 0 0 0 0 0 0 0 0 0 0 0 0 0 0 0 0 0 0 0 0 0 1.66 1.66 1.66 0 0 0 0 0 0 0 0 0 0 0 0 0 0 0 0 0 0 0 0 0 0 0 0 0 0 0 0 0 0 0 0 0 0 0 0 0 0 0 0 0 0
0 0 0 0 0 0 0 0 0 0 0 0 0 0 0 0 0 0 0 0 0 0 0 0 0 0 0 0 0 0 0 0 0 0 0 0 0 0 0 0 0 0 0 0 0 0 0 0 0.8 1.66 0.71 0.9 0 0 0 0 0 0 0 0 0 0 0 0 0 0 0 0 0 0 0 0 0 0 0 0 0 0 0 0 0 0 0 0 0 0 0 0 0 0 0 0 0
0 0 0 0 0 0 0 0 0 0 0 0 0 0 0 0 0 0 0 0 0 0 0 0 0 0 0 0 0 0 0 0 0 0 0 0 1.66 1.66 0.95 0.95 0.4 0.4 0.51 0.51 0.51 0.4 0.4 0.8 0 1.66 0.7 2.58 0 0 0 0 0 0 0 0 0 0 0 0 0 0 0 0 0 0 0 0 0 0 0 0 0 0 0 0 0 0 0 0 0 0 0 0 0 0 0 0 0
0 0 0 0 0 0 0 0 0 0 0 0 0 0 0 0 0 0 0 0 0 0 0 0 0 0 0 0 0 0 0.4 0.51 0.59 0.46 0.59 0.59 2.1 1.66 0.51 0.4 0.4 0.4 0.51 0.51 0.51 0.4 0.4 0.51 0 1.77 1.66 1.77 2.58 0 0 0 0 0 0 0 0 0 0 0 0 0 0 0 0 0 0 0 0 0 0 0 0 0 0 0 0 0 0 0 0 0 0 0 0 0 0 0 0
0 0 0 0 0 0 0 0 0 0 0 0 0 0 0 0 0 0 0 0 0 0 0 0 0 0 0 0 0 0 0.4 0.59 0.46 0.46 0.59 0.59 0.5 0.51 0.4 0.4 0.4 0.4 0.51 0.51 0.41 0.46 0.4 0.66 0.66 0 0.41 1.57 0.66 0.66 0 0 0 0 0 0 0 0 0 0 0 0 0 0 0 0 0 0 0 0 0 0 0 0 0 0 0 0 0 0 0 0 0 0 0 0 0 0 0
0 0 0 0 0 0 0 0 0 0 0 0 0 0 0 0 0 0 0 0 0 0 0 0 0 0 0 0 0 0.46 0.71 0.59 0.46 0.46 0.59 0.46 0.7 1.66 1.66 2.11 1.57 1.57 1.77 2.58 0.66 0.41 0.66 0.66 0.66 0 0 0.41 0.41 0.66 0 0 0 0 0 0 0 0 0 0 0 0 0 0 0 0 0 0 0 0 0 0 0 0 0 0 0 0 0 0 0 0 0 0 0 0 0 0 0
0 0 0 0 0 0 0 0 0 0 0 0 0 0 0 0 0 0 0 0 0 0 0 0 0 0 0 0 0 0.94 0.46 0.46 0.74 0.59 1.35 0.46 0.74 0.7 1.66 1.2 1.77 1.57 1.57 0.41 0.41 0.41 0.66 0.66 0.39 0.62 0 0.46 0.66 0.66 0.66 0 0 0 0 0 0 0 0 0 0 0 0 0 0 0 0 0 0 0 0 0 0 0 0 0 0 0 0 0 0 0 0 0 0 0 0 0 0
0 0 0 0 0 0 0 0 0 0 0 0 0 0 0 0 0 0 0 0 0 0 0 0 0 0 0 0 0.58 0.58 0.46 0.73 1.35 1.35 1.57 0.51 0.74 0.74 0.83 0.74 0.41 0.41 0.41 0.41 0.41 0.41 0.62 0.62 0.62 0.39 0.62 0 0.66 0.66 0.62 0.62 0 0 0 0 0 0 0 0 0 0 0 0 0 0 0 0 0 0 0 0 0 0 0 0 0 0 0 0 0 0 0 0 0 0 0 0 0
0 0 0 0 0 0 0 0 0 0 0 0 0 0 0 0 0 0 0 0 0 0 0 0 0 0 0 0 0.94 0.74 1.57 1.57 2.58 1.2 1.77 1.57 0.74 0.74 0.74 0.66 0.41 0.41 0.41 0.41 0.41 0.39 0.39 0.62 0.39 0.62 0.62 0 0.43 0.39 0.62 1.87 0 0 0 0 0 0 0 0 0 0 0 0 0 0 0 0 0 0 0 0 0 0 0 0 0 0 0 0 0 0 0 0 0 0 0 0 0
0 0 0 0 0 0 0 0 0 0 0 0 0 0 0 0 0 0 0 0 0 0 0 0 0 0 0 0.45 0.45 0.45 0.45 1.57 1.2 0.74 0.74 0.74 0.45 0.74 0.41 0.46 0.39 0.41 0.41 0.39 0.39 0.39 0.62 0.39 0.62 0.62 0.76 0 1.81 1.09 2.6 1.27 1.1 0 0 0 0 0 0 0 0 0 0 0 0 0 0 0 0 0 0 0 0 0 0 0 0 0 0 0 0 0 0 0 0 0 0 0 0
0 0 0 0 0 0 0 0 0 0 0 0 0 0 0 0 0 0 0 0 0 0 0 0 0 0 0 0.45 0.45 0.45 0.45 0.45 0.74 0.74 0.72 0.72 1.57 0.72 0.39 0.41 0.39 0.39 0.39 0.39 0.39 0.45 0.45 0.76 0.76 0.76 0.76 0.62 1.09 0.62 1.27 1.1 1.95 0 0 0 0 0 0 0 0 0 0 0 0 0 0 0 0 0 0 0 0 0 0 0 0 0 0 0 0 0 0 0 0 0 0 0 0
0 0 0 0 0 0 0 0 0 0 0 0 0 0 0 0 0 0 0 0 0 0 0 0 0 0 0.46 0.66 0.45 0.45 0.45 0.45 0.72 0.72 0.72 0.72 0.51 0.43 0.43 0.39 0.51 0.39 0.39 0.39 1.7 1.5 1.5 3.61 0.76 0.76 0.76 0.76 0.62 0.62 0.62 1.09 1.27 1.27 0 0 0 0 0 0 0 0 0 0 0 0 0 0 0 0 0 0 0 0 0 0 0 0 0 0 0 0 0 0 0 0 0 0 0
0 0 0 0 0 0 0 0 0 0 0 0 0 0 0 0 0 0 0 0 0 0 0 0 0 0 0.46 0.62 0.62 0.45 0.45 0.45 0.72 0.72 0.72 0.72 0.39 0.39 0.39 0.76 0.39 0.76 0.45 2.13 0.77 2.42 2.13 3.61 2.42 0.76 0 2.47 2.47 2.47 1.6 1.6 1.6 4.59 4.59 0 0 0 0 0 0 0 0 0 0 0 0 0 0 0 0 0 0 0 0 0 0 0 0 0 0 0 0 0 0 0 0 0 0
0 0 0 0 0 0 0 0 0 0 0 0 0 0 0 0 0 0 0 0 0 0 0 0 0 0.39 0.46 0.62 0.43 0.39 0.45 0.45 0.72 0.72 0.72 0.76 0.76 0.39 0.45 0.45 0.76 2.42 3.61 2.13 2.13 2.13 2.13 3.61 2.13 0 0 0.76 0.76 2.47 1.6 1.6 1.6 1.6 6.74 0 0 0 0 0 0 0 0 0 0 0 0 0 0 0 0 0 0 0 0 0 0 0 0 0 0 0 0 0 0 0 0 0 0
0 0 0 0 0 0 0 0 0 0 0 0 0 0 0 0 0 0 0 0 0 0 0 0 0 0.62 0.39 0.39 2.6 0.45 0.39 0.39 0.76 0.76 0.76 0.76 0.51 0.76 2.13 1.5 2.13 2.13 2.13 2.13 2.13 2.13 0 2.13 0 0 0.62 2.47 0.76 0.76 2.47 1.6 1.6 1.6 0.39 0.39 0 0 0 0 0 0 0 0 0 0 0 0 0 0 0 0 0 0 0 0 0 0 0 0 0 0 0 0 0 0 0 0 0
0 0 0 0 0 0 0 0 0 0 0 0 0 0 0 0 0 0 0 0 0 0 0 0 0.51 0.51 0.62 1.61 0.88 0.51 0.45 0.45 0.76 0.76 0.76 0.76 0.51 0.76 2.42 2.13 2.13 2.13 2.13 2.13 2.2 0 2.13 0 0 0.62 0.62 1.09 0.62 0.62 0.62 1.09 1.09 0.39 0.45 0.39 0.39 0 0 0 0 0 0 0 0 0 0 0 0 0 0 0 0 0 0 0 0 0 0 0 0 0 0 0 0 0 0 0 0
0 0 0 0 0 0 0 0 0 0 0 0 0 0 0 0 0 0 0 0 0 0 0 0 0.72 0.72 2.6 0.88 0.68 0.51 0.45 0.77 0.76 0.76 0.76 0.76 0.76 1.05 1.05 2.12 2.13 2.2 2.13 0 0 2.2 0 0 0.62 0.62 1.09 1.09 0.62 0.62 2.47 0.45 0.51 0.45 0.39 0.45 0.45 0.76 0 0 0 0 0 0 0 0 0 0 0 0 0 0 0 0 0 0 0 0 0 0 0 0 0 0 0 0 0 0 0
0 0 0 0 0 0 0 0 0 0 0 0 0 0 0 0 0 0 0 0 0 0 0 1.81 0.45 0.45 0.45 0.51 0.51 0.45 1.7 1.5 1.5 0.8 0.61 1.05 1.05 1.05 1.04 1.04 2.12 2.12 0 2.2 4.95 0 0 0.39 0.39 0.39 0.51 0.76 0.76 0.45 0.45 0.45 0.45 0.45 0.45 0.45 0.45 1.04 1.04 0 0 0 0 0 0 0 0 0 0 0 0 0 0 0 0 0 0 0 0 0 0 0 0 0 0 0 0 0 0
0 0 0 0 0 0 0 0 0 0 0 0 0 0 0 0 0 0 0 0 0 0 1.61 1.81 0.51 0.45 0.45 0.45 0.76 0.76 1.5 0.46 2.01 3.48 0.8 1.04 1.04 1.04 1.04 1.04 0 0 2.12 4.95 0 0 0.72 0.39 0.39 0.39 0.39 0.76 0.76 0.76 0.45 0.45 0.45 0.45 0.45 0.45 0.45 1.04 1.04 0 0 0 0 0 0 0 0 0 0 0 0 0 0 0 0 0 0 0 0 0 0 0 0 0 0 0 0 0 0
0 0 0 0 0 0 0 0 0 0 0 0 0 0 0 0 0 0 0 0 0 0 0.74 1.61 0.72 0.72 0.72 0.76 1.5 2.54 0.76 0.6 1.55 2.2 2.86 2.2 2.2 4.95 1.04 0 1.79 3.48 7.12 0 0 0.72 0.39 0.45 0.39 0.45 0.45 0.76 0.76 0.45 0.45 0.45 0.76 0.51 1.04 1.04 0.8 1.04 3.48 1.04 0 0 0 0 0 0 0 0 0 0 0 0 0 0 0 0 0 0 0 0 0 0 0 0 0 0 0 0 0
0 0 0 0 0 0 0 0 0 0 0 0 0 0 0 0 0 0 0 0 0 0.74 2.6 0.51 0.51 0.45 0.76 2.54 4.98 0.76 0.6 2 0.6 2.2 2.2 4.95 4.95 4.95 0 1.79 3.48 7.12 0 0 0.76 0.76 0.45 0.39 0.45 0.45 0.45 0.76 1.04 1.04 1.04 1.04 1.04 1.04 1.04 1.04 1.04 1.55 1.04 1.04 0 0 0 0 0 0 0 0 0 0 0 0 0 0 0 0 0 0 0 0 0 0 0 0 0 0 0 0 0
0 0 0 0 0 0 0 0 0 0 0 0 0 0 0 0 0 0 0 0 0 0.45 0.45 0.45 0.45 0.45 0.45 0.45 0.51 1.05 0.46 0.6 2.2 2.2 2.2 4.95 4.95 0 2.12 2.12 3.61 0 0 0.76 0.76 0.45 0.76 0.45 0.45 0.45 0.45 1.04 1.04 1.04 1.04 1.04 1.04 1.04 1.04 1.04 1.04 1.04 1.04 1.19 1.19 0 0 0 0 0 0 0 0 0 0 0 0 0 0 0 0 0 0 0 0 0 0 0 0 0 0 0 0
0 0 0 0 0 0 0 0 0 0 0 0 0 0 0 0 0 0 0 0 0.45 0.45 0.45 0.45 0.45 0.45 0.45 0.45 0.45 1.05 1.05 0.46 2.2 2.2 2.2 4.95 0 7.12 2.12 1.04 0 0 0.76 0.76 0.51 0.51 0.45 0.46 0.45 0.46 0.46 1.04 1.04 1.04 1.04 1.04 1.04 1.04 1.04 1.04 1.19 1.19 1.19 1.19 2.67 2.67 0 0 0 0 0 0 0 0 0 0 0 0 0 0 0 0 0 0 0 0 0 0 0 0 0 0 0
0 0 0 0 0 0 0 0 0 0 0 0 0 0 0 0 0 0 0 0 0.45 0.45 0.45 0.45 0.45 0.45 0.45 0.47 0.47 1.05 1.55 2.2 2.2 2.2 2.2 0 1.04 1.04 1.04 0 0 1.05 0.76 0.76 0.51 0.76 1.04 0.46 0.46 0.46 0.46 1.04 1.04 1.19 1.19 1.19 1.19 1.19 1.19 1.19 1.19 1.19 1.19 1.19 2.67 2.67 0 0 0 0 0 0 0 0 0 0 0 0 0 0 0 0 0 0 0 0 0 0 0 0 0 0 0
0 0 0 0 0 0 0 0 0 0 0 0 0 0 0 0 0 0 0 0.51 0.51 0.45 0.45 0.45 0.45 0.45 0.45 0.45 0.61 1.55 1.05 1.55 2.2 2.2 2.2 1.04 1.04 1.04 3.51 0 3.48 3.48 1.05 1.05 1.05 1.05 1.04 0.46 0.46 0.46 0.46 1.19 1.19 1.19 1.19 1.19 1.19 1.19 1.19 1.19 1.19 1.19 1.19 2.67 2.67 2.67 2.67 0 0 0 0 0 0 0 0 0 0 0 0 0 0 0 0 0 0 0 0 0 0 0 0 0 0
0 0 0 0 0 0 0 0 0 0 0 0 0 0 0 0 0 0 0 0.39 0.39 0.39 0.45 0.45 0.45 1.05 0.45 0.47 0.47 1.05 1.05 1.05 1.19 2.22 0 1.49 2.22 1.49 0 0 2.01 1.05 1.05 1.05 1.05 1.05 1.05 0.46 0.46 0.46 0.51 1.19 1.19 1.19 1.19 1.19 1.19 1.19 1.19 1.19 1.19 1.19 2.67 2.67 2.67 2.67 2.67 2.67 0 0 0 0 0 0 0 0 0 0 0 0 0 0 0 0 0 0 0 0 0 0 0 0 0
0 0 0 0 0 0 0 0 0 0 0 0 0 0 0 0 0 0 0.39 0.39 0.39 0.39 0.45 0.45 0.45 1.05 1.05 0.47 0.47 0.67 1.19 1.19 2.67 2.22 2.22 5.23 2.22 2.22 0 1.05 0.61 0.47 1.05 1.05 1.05 1.05 0.51 0.51 0.46 0.51 0.51 1.19 1.19 1.19 1.19 1.19 1.19 1.19 1.19 1.19 1.19 2.67 2.67 2.67 2.67 2.67 2.67 2.67 0 0 0 0 0 0 0 0 0 0 0 0 0 0 0 0 0 0 0 0 0 0 0 0 0
0 0 0 0 0 0 0 0 0 0 0 0 0 0 0 0 0 0 0.62 0.39 0.39 0.45 0.45 0.45 0.47 1.05 1.05 0.51 0.46 1.49 2.67 2.67 1.19 0 2.22 2.22 2.22 0 0 1.05 0.47 1.05 1.11 1.11 1.11 1.11 1.11 0.51 0.51 0.51 0.51 1.19 1.19 1.19 1.19 0.89 0.89 0.89 0.89 0.89 1.19 1.19 1.19 2.67 2.67 2.67 2.67 2.67 1.19 0 0 0 0 0 0 0 0 0 0 0 0 0 0 0 0 0 0 0 0 0 0 0 0
0 0 0 0 0 0 0 0 0 0 0 0 0 0 0 0 0 0.62 0.62 0.62 0.72 0.76 0.76 0.45 0.47 1.05 1.96 0.67 2.22 2.22 5.23 1.19 0 2.22 2.92 2.22 5.23 0 1.05 0.67 0.62 1.11 1.11 1.11 1.11 1.11 1.11 0.51 0.51 0.51 0.51 0.89 0.89 0.89 0.89 0.89 0.89 0.89 0.89 0.89 1.91 0.89 1.19 1.19 2.67 2.67 2.67 1.19 1.19 0 0 0 0 0 0 0 0 0 0 0 0 0 0 0 0 0 0 0 0 0 0 0 0
0 0 0 0 0 0 0 0 0 0 0 0 0 0 0 0 0 0.62 0.62 0.62 0.76 0.76 0.45 0.47 0.47 1.54 1.55 0.67 2.22 2.22 5.23 11.6 0 5.23 2.22 5.23 0 1.11 1.11 0.67 1.19 1.11 1.11 1.11 0.47 1.11 0.47 0.51 0.51 0.51 0.51 0.89 0.89 0.89 0.89 0.89 0.89 0.89 0.89 1.91 0.89 1.91 1.91 1.91 1.91 2.67 1.79 1.19 0.89 0.89 0 0 0 0 0 0 0 0 0 0 0 0 0 0 0 0 0 0 0 0 0 0 0
0 0 0 0 0 0 0 0 0 0 0 0 0 0 0 0 0.46 0.62 0.43 0.43 0.76 0.76 0.76 0.6 0.6 0.6 1.48 0.66 2.22 2.22 5.23 0 5.23 5.23 5.23 1.19 0 0.62 0.62 1.19 1.19 1.11 1.19 1.11 0.46 0.47 0.47 0.51 0.51 0.51 0.51 0.89 0.89 0.89 0.89 0.89 0.89 0.89 0.89 0.89 1.91 1.91 1.91 1.91 1.91 1.19 1.19 0.89 0.51 1.91 0.89 0 0 0 0 0 0 0 0 0 0 0 0 0 0 0 0 0 0 0 0 0 0
0 0 0 0 0 0 0 0 0 0 0 0 0 0 0 0 0.46 0.39 0.62 0.76 0.76 0.76 0.76 0.6 0.6 0.6 0.66 0.66 2.22 2.22 11.6 0 5.15 1.19 1.19 0 0 0.67 1.19 0.51 1.19 1.11 1.11 0.8 0.8 0.46 0.46 0.51 0.51 0.51 0.51 0.89 0.89 0.89 0.89 0.89 0.89 0.89 0.89 1.91 1.91 1.91 1.91 1.91 1.91 0.89 0.51 0.51 0.89 0.89 0.51 0 0 0 0 0 0 0 0 0 0 0 0 0 0 0 0 0 0 0 0 0 0
0 0 0 0 0 0 0 0 0 0 0 0 0 0 0 0.46 0.46 0.68 0.39 0.76 0.76 0.76 0.76 0.6 0.6 0.51 0.66 2.22 2.22 2.22 0 0.67 1.19 1.19 0.67 0 0.89 0.89 0.51 0.51 0.89 0.8 0.8 0.8 0.46 0.46 0.46 0.98 0.51 0.51 0.42 0.89 0.98 0.98 0.89 0.89 0.89 0.89 0.89 0.89 1.91 1.91 1.91 1.91 1.91 0.58 1.41 0.89 1.91 0.89 0.58 0.51 0 0 0 0 0 0 0 0 0 0 0 0 0 0 0 0 0 0 0 0 0
0 0 0 0 0 0 0 0 0 0 0 0 0 0 0 0.66 1.1 0.62 0.39 1.5 0.88 0.76 0.45 0.47 0.47 0.47 0.51 2.22 2.22 2.22 0 0.67 1.19 0.89 0.67 0 0.58 0.89 0.51 0.51 0.8 0.8 0.8 0.8 0.46 0.46 0.46 0.98 0.42 0.42 0.42 0.98 0.98 0.98 0.89 0.89 0.89 0.89 0.89 0.89 1.64 1.91 1.91 0.51 0.89 0.58 0.89 0.89 0.89 0.58 0.89 2.41 2.11 0 0 0 0 0 0 0 0 0 0 0 0 0 0 0 0 0 0 0 0
0 0 0 0 0 0 0 0 0 0 0 0 0 0 0.46 0.46 1.61 0.62 0.72 0.45 0.51 0.45 0.47 0.45 0.47 0.51 0.51 2.22 2.22 0 0.51 0.89 0.89 0.89 0 0.51 0.58 0.89 0.51 0.51 0.8 0.98 0.8 0.46 0.46 0.46 0.46 0.59 0.59 0.98 1.62 0.98 0.98 0.98 1.5 0.89 0.89 1.64 1.64 1.64 1.64 0.89 0.89 0.89 0.51 0.89 0.89 0.89 0.89 0.58 0.89 0.54 0.58 0 0 0 0 0 0 0 0 0 0 0 0 0 0 0 0 0 0 0 0
0 0 0 0 0 0 0 0 0 0 0 0 0 0 0.66 0.66 0.62 0.62 0.72 0.51 0.45 0.45 0.45 0.47 0.47 0.46 2.89 2.89 5.15 0 0.58 0.89 0.89 0 0 0.42 0.51 0.89 0.89 0.51 0.98 0.98 0.98 0.46 0.46 0.46 0.46 0.46 0.59 1.5 1.5 1.5 1.5 1.5 1.48 1.48 0.89 0.89 0.89 0.89 0.89 0.89 0.89 0.54 0.89 0.89 0.89 0.89 0.89 0.58 0.89 0.54 0.42 0.42 0 0 0 0 0 0 0 0 0 0 0 0 0 0 0 0 0 0 0
0 0 0 0 0 0 0 0 0 0 0 0 0 0.66 0.66 0.66 0.66 0.72 0.72 0.76 0.45 1.5 0.45 0.47 0.47 0.51 2.22 0 0 0 0.58 0.89 0.89 0 0.42 0.42 0.42 0.89 0.54 0.54 0.98 0.98 0.98 0.59 0.46 0.51 0.46 1.5 1.5 0.76 1.5 1.5 1.5 1.5 1.48 1.48 0.89 1.64 1.64 1.64 0.89 0.89 0.54 0.89 0.89 0.89 0.89 0.54 0.89 0.54 0.42 0.54 0.42 0.42 0 0 0 0 0 0 0 0 0 0 0 0 0 0 0 0 0 0 0
0 0 0 0 0 0 0 0 0 0 0 0 0 0.66 0.66 0.66 0.62 0.72 0.72 0.76 0.76 0.76 0.45 0.47 0.66 0.66 1.94 0 0 0 0.58 0.89 0 0 0 0.42 0.42 0.89 0.54 1.64 1.64 0.98 0.98 0.59 0.46 1.5 0.51 0.51 4.98 1.7 4.98 8.3 1.5 1.5 1.5 2.47 2.47 1.64 1.64 0.89 0.89 0.89 0.89 0.89 0.89 0.89 0.54 0.89 0.54 1.62 1.62 0.54 1.48 0.42 0.51 0 0 0 0 0 0 0 0 0 0 0 0 0 0 0 0 0 0
0 0 0 0 0 0 0 0 0 0 0 0 0.94 0.74 0.74 0.51 0.72 0.72 0.72 0.76 0.76 0.51 0.47 0.47 1.54 0.66 0 0 0 0 0.59 0.42 0 0.54 0 1.48 0.42 1.48 1.48 1.48 0.89 1.5 1.5 1.5 1.5 0.76 1.5 1.7 1.5 2.49 1.5 2.56 2.49 2.49 2.49 1.48 1.48 2.47 1.48 1.48 1.48 1.48 1.48 0.89 0.89 0.54 0.89 1.64 0.54 1.48 0.76 0.42 0.51 0.51 0.51 1.48 0 0 0 0 0 0 0 0 0 0 0 0 0 0 0 0 0
0 0 0 0 0 0 0 0 0 0 0 0.94 0.74 0.45 0.51 0.45 0.72 0.72 0.72 0.76 0.76 0.76 0.6 0.6 0.66 1.17 0 0 0 0.46 0.59 0 0.42 0.54 1.48 0 0.76 1.48 1.48 0.51 0.76 1.5 1.5 1.5 1.5 0.76 1.5 1.5 1.5 1.5 1.5 1.5 1.5 2.49 2.49 2.49 1.48 1.48 1.48 1.48 1.48 1.48 1.48 1.48 1.48 0.89 1.48 0.51 0.54 1.48 0.76 0.76 0.51 0.51 1.48 1.48 0 0 0 0 0 0 0 0 0 0 0 0 0 0 0 0 0
0 0 0 0 0 0 0 0 0 0 0 0.46 0.46 0.74 0.45 0.74 0.72 0.72 0.72 0.76 0.76 0.6 0.6 1.02 2.09 0 0 0 0 0.46 0.46 0 0.76 1.48 0.76 1.48 0 1.48 1.48 0.51 0.51 1.48 1.48 1.48 0.76 1.5 1.5 1.5 1.5 2.54 2.49 2.49 1.5 2.49 1.5 1.48 1.48 1.48 1.48 1.48 1.48 1.48 1.48 1.48 1.48 1.48 1.48 0.51 0.51 1.48 0.76 0.51 1.7 1.7 1.48 2.47 2.47 0 0 0 0 0 0 0 0 0 0 0 0 0 0 0 0
0 0 0 0 0 0 0 0 0 0 0.46 0.46 0.46 0.46 0.74 0.72 0.72 0.45 0.51 0.51 0.51 0.6 1.02 1.02 2.09 0 0 0 0 0.59 0 0.51 1.48 0.76 1.48 1.48 0 0 0.51 0.51 0.51 1.48 1.48 0.76 1.48 1.5 1.5 1.5 1.5 2.49 2.49 2.49 2.49 1.5 1.5 0.76 1.48 1.48 1.48 1.48 1.48 1.48 1.48 1.48 1.48 1.48 1.48 0.51 0.51 0.51 0.51 0.51 1.48 1.7 2.47 2.47 2.47 0 0 0 0 0 0 0 0 0 0 0 0 0 0 0 0
0 0 0 0 0 0 0 0 0 0 0.46 0.74 0.45 0.45 0.72 0.45 0.45 0.45 0.45 0.76 0.45 2.2 2.2 1.02 0 0 0 0 1.5 1.5 0 0.76 0.76 1.48 1.48 1.48 1.48 0 0 0.51 0.51 1.48 0.76 1.48 1.48 1.48 2.49 2.49 2.49 2.49 2.49 1.5 1.5 1.5 0.76 1.48 1.48 1.48 1.48 1.48 1.48 1.48 1.48 1.48 1.48 1.48 1.48 0.51 0.51 0.51 0.51 1.48 1.48 1.48 2.47 1.48 2.47 2.47 0 0 0 0 0 0 0 0 0 0 0 0 0 0 0
0 0 0 0 0 0 0 0 0 0.51 0.51 1.77 0.45 0.45 1.81 0.45 0.45 0.45 0.45 0.45 2.84 2.2 4.87 0 0 0 0 1.5 1.5 0 0 0.76 1.48 1.48 1.48 1.48 1.48 1.5 0 0 0.51 0.76 1.48 1.48 1.48 1.48 2.47 2.47 2.49 1.48 1.5 1.5 1.5 0.76 1.5 1.5 1.48 1.48 1.48 1.48 1.48 1.48 1.48 1.48 1.48 1.48 0.51 0.51 0.51 0.51 1.7 2.56 1.48 1.48 1.48 4.98 2.47 8.3 8.3 0 0 0 0 0 0 0 0 0 0 0 0 0 0
0 0 0 0 0 0 0 0 0 0.74 0 1.57 0.51 0.45 1.61 0.51 0.45 0.45 0.45 0.45 2.13 2.84 4.87 0 0 0 0 0.76 1.5 0 1.48 1.48 1.48 1.48 1.48 1.48 1.5 1.5 1.5 0 0.76 1.48 1.48 1.48 1.48 1.48 1.48 1.48 1.48 1.5 1.5 1.5 0.76 0.51 1.5 1.5 1.5 1.48 1.48 1.48 1.48 1.48 1.48 1.48 1.48 1.48 0.51 0.51 0.51 0.88 2.42 11.8 4.98 2.47 2.47 4.98 2.47 2.56 4.98 0 0 0 0 0 0 0 0 0 0 0 0 0 0
0 0 0 0 0 0 0 0 0.74 0.51 0.51 0 0.45 1.84 1.84 0.45 0.45 0.45 0.45 3.61 3.61 7.08 0 0 0 0 0 0.76 0 0 0.76 1.48 1.48 1.48 1.48 1.5 1.5 1.5 1.5 1.48 0 0.76 1.48 1.48 1.48 1.48 1.48 1.48 1.48 1.5 1.5 1.5 1.5 1.7 1.5 1.5 1.5 1.48 1.48 1.48 1.48 1.48 2.54 4.98 1.48 1.48 0.76 0.51 3.61 2.42 7.08 4.98 4.26 4.26 1.48 2.47 2.56 2.47 2.47 2.47 0 0 0 0 0 0 0 0 0 0 0 0 0
0 0 0 0 0 0 0 0 1.77 0.74 0.51 0.51 0 1.61 2.07 0.51 0.45 0.45 0.45 2.13 3.61 7.08 0 0 0 0 0.51 0.76 0 0.76 1.48 1.7 1.48 1.5 1.5 1.5 1.5 1.5 1.5 0.76 1.48 0 1.48 1.48 1.48 2.47 2.47 1.48 1.48 1.5 1.5 1.5 1.5 1.3 1.5 1.5 1.5 1.48 1.48 1.48 1.48 1.48 1.48 1.48 1.48 1.48 0.76 2.42 2.42 2.56 11.8 11.8 4.98 4.98 1.48 1.48 1.48 1.48 1.48 2.47 4.98 0 0 0 0 0 0 0 0 0 0 0 0
0 0 0 0 0 0 0 1.77 1.77 0.74 1.57 1.35 0.66 0 0.72 0.45 0.76 0.76 3.61 3.61 3.61 0 0 0 0 0 0.51 0.51 0 0.76 1.48 1.48 1.48 1.5 1.5 1.5 1.5 1.5 1.35 0.76 0.51 0 0 1.5 2.49 1.48 0.76 1.5 1.5 1.5 1.5 1.5 1.5 1.5 2.56 1.5 1.5 1.5 1.48 1.48 1.48 2.47 1.7 1.7 1.48 0.88 2.42 2.42 2.42 4.26 2.56 2.56 3.61 4.26 2.47 2.47 2.47 2.47 2.47 4.98 8.3 0 0 0 0 0 0 0 0 0 0 0 0
0 0 0 0 0 0 0 0.94 0.94 0.45 0.73 1.57 1.09 0.72 0 0.45 1.5 2.13 3.61 3.61 7.08 0 0 0 0 0.51 0.51 0 0.51 0.76 1.48 1.48 1.5 1.5 1.5 1.5 0.76 1.35 1.35 1.77 0.83 0 0 0 1.5 0.51 0.76 1.48 1.5 1.5 1.5 1.5 1.5 2.49 1.5 1.7 2.49 2.49 4.98 2.56 4.98 1.5 1.5 1.7 1.48 2.42 0.88 2.42 11.8 4.26 4.26 4.26 4.26 2.56 2.47 2.47 2.47 2.47 2.47 2.47 4.98 8.3 0 0 0 0 0 0 0 0 0 0 0
0 0 0 0 0 0 0.94 0.58 0.58 0.74 0.74 1.57 0.51 0.51 0.51 0 0.76 0.45 2.13 3.61 0 0 0 0 0 0.51 0.51 0 0.51 0.51 1.48 1.22 1.35 1.35 1.35 1.35 0.74 1.35 3.23 5.92 1.77 3.37 4.73 0 0 0.51 0.51 1.48 1.48 1.5 1.5 1.5 1.5 1.5 1.5 2.49 2.49 2.49 2.49 4.98 1.5 1.5 1.48 1.48 2.42 0.88 2.42 11.8 11.8 2.56 4.26 4.26 4.26 2.56 4.26 2.47 2.47 2.47 2.47 2.47 2.47 4.98 0 0 0 0 0 0 0 0 0 0 0
0 0 0 0 0 0 0.46 1.57 0.74 1.2 0.74 1.81 1.81 0.62 0.72 0.72 0 0.76 7.08 7.08 0 0 0 0 0.51 0.59 0 0 0.46 0.51 1.22 1.35 1.35 1.35 1.35 2.58 1.77 1.77 2.22 4.73 3.37 4.73 1.35 2.06 0 0 0.51 1.22 1.48 1.5 1.5 1.5 1.5 1.5 1.5 1.5 1.5 1.5 2.49 4.98 1.7 2.42 7.08 4.98 4.98 2.42 2.56 11.8 11.8 2.47 4.98 8.3 4.26 4.26 2.56 2.56 2.47 2.47 2.47 2.47 2.47 2.47 2.47 0 0 0 0 0 0 0 0 0 0
0 0 0 0 0 0.7 1.57 0.46 1.77 1.35 0.74 0.74 0.62 0.72 0.72 0.72 0.51 0 0 0 0 0 0 0 0.59 0.59 0 0.51 0.51 0.46 1.22 1.35 1.35 1.35 1.35 1.77 2.58 1.77 2.22 5.92 2.06 2.21 4.73 1.35 2.22 0 0.66 1.22 1.22 1.35 1.5 1.5 2.54 2.49 2.49 2.49 2.49 2.49 4.98 1.5 1.7 1.7 2.56 1.7 1.7 8.3 7.08 2.56 2.47 2.47 1.48 4.26 4.26 2.56 2.56 2.56 2.47 2.47 1.48 1.48 1.48 1.48 1.48 1.48 0 0 0 0 0 0 0 0 0
0 0 0 0 0 0.8 0.7 1.77 2.58 0.83 0.83 1.2 0.83 0.77 0.43 0.76 1.5 2.42 0 0 0 0 0 0.97 0.59 0 0 0.45 0.51 0.46 1.77 1.35 1.35 1.35 1.35 1.35 1.77 2.58 2.22 3.37 3.37 1.35 1.35 1.77 2.58 2.22 0 1.22 1.22 1.35 1.35 2.21 2.06 2.49 1.5 1.5 1.5 1.5 1.5 1.5 1.5 1.7 2.56 2.56 2.49 1.5 2.47 1.48 1.48 1.48 1.48 2.47 7.08 11.8 4.98 2.56 2.49 1.48 1.48 1.48 1.48 1.48 1.48 2.47 0 0 0 0 0 0 0 0 0
0 0 0 0 0.8 0.8 1.77 2.58 4.73 0.74 0.74 0.83 0.45 0.45 0.39 2.13 3.61 3.61 0 0 0 0 0 0.8 0.59 0 0.46 0.76 0.46 1.77 2.22 1.77 2.58 1.35 1.35 2.06 4.73 2.58 5.92 2.21 1.35 1.35 2.06 2.06 1.77 2.22 2.22 0 4.73 1.35 1.35 2.21 3.37 1.5 1.5 1.5 1.5 2.54 1.3 1.5 1.5 1.5 1.7 2.56 1.5 1.5 1.48 1.48 1.48 1.48 1.48 1.48 4.98 4.98 8.3 4.98 1.5 4.98 1.48 1.48 1.48 1.48 1.48 1.48 2.47 0 0 0 0 0 0 0 0
0 0 0 0 0.94 0.8 1.42 7.23 0.74 0.74 0.74 0.74 0.45 0.45 0.45 2.13 2.42 3.61 0 0 0 0 1.73 1.73 0 0 0.51 0.46 0.46 2.22 2.22 2.22 2.58 4.73 2.06 2.06 2.58 2.21 2.21 2.21 1.35 1.35 1.35 1.35 1.35 2.22 2.22 0 0 4.73 4.73 2.06 4.73 7.23 1.35 1.5 1.5 4.98 2.56 1.5 1.5 1.5 1.7 2.56 4.98 2.47 2.47 3.61 2.56 2.47 2.47 2.49 4.98 8.3 2.49 1.5 1.5 1.5 1.48 1.48 1.48 1.48 1.48 1.48 1.48 0 0 0 0 0 0 0 0
0 0 0 0.94 0.8 1.42 1.42 1.66 0.74 0.74 0.74 0.74 0.72 0.72 2.42 2.42 3.61 0 0 0 0 0 0.8 1.73 0 0.51 0.51 0.46 1.77 1.57 2.22 2.22 2.21 4.26 4.73 1.35 1.77 1.77 4.73 2.06 2.06 0.83 1.35 1.35 2.06 1.77 9.05 5.92 0 0 1.77 2.58 1.35 1.35 1.5 1.5 1.5 4.98 1.7 2.54 1.7 8.3 4.98 2.56 7.08 1.5 4.98 2.42 7.08 2.49 2.49 2.49 4.98 2.49 1.5 2.47 1.5 1.5 1.5 1.48 2.47 2.47 2.47 2.47 2.47 2.47 0 0 0 0 0 0 0
0 0 0 3.38 0 3.38 1.44 1.66 0.94 0.74 0.74 0.74 0.72 0.51 0.51 3.61 3.61 0 0 0 0 1.73 0.8 1.73 0 0.45 0.45 1.77 1.77 1.57 1.77 2.42 11.8 1.5 1.35 1.5 1.7 1.77 4.98 2.06 1.35 1.35 0.83 3.37 2.58 4.73 1.35 4.73 5.92 0 0 1.77 1.35 1.35 1.5 1.5 1.5 4.73 4.73 1.7 4.26 4.98 4.26 7.08 4.98 2.49 11.8 11.8 7.08 1.5 1.5 1.5 2.49 2.49 2.49 1.5 1.48 2.47 2.47 2.47 2.47 2.47 2.47 2.47 2.47 1.51 1.48 0 0 0 0 0 0
0 0 3.38 5.98 0.8 0 3.38 0.94 0.74 0.74 0.51 0.51 0.72 0.72 3.61 3.61 0 0 0 0 0 0.8 0.8 0 0 0.51 0.51 0.51 0.45 1.7 1.5 1.5 1.5 1.5 1.5 1.5 4.98 1.7 2.56 1.35 1.35 1.77 2.06 5.92 4.73 4.73 4.73 4.73 4.73 5.92 0 2.21 1.35 1.35 1.35 4.73 4.73 4.73 4.73 4.73 2.56 4.26 4.98 11.8 11.8 2.49 2.49 1.5 1.5 1.5 1.5 2.49 2.49 2.49 1.5 1.48 1.48 1.48 1.48 1.48 1.48 1.48 1.48 2.47 2.47 1.48 2.47 0 0 0 0 0 0
0 0 2.1 2.1 1.66 1.66 5.98 0.46 0.45 0.45 0.45 0.45 0.45 0.51 2.07 0 0 0 0 0 1.09 0.62 0 0 0.51 0.66 0.51 0.51 0.51 1.7 1.7 4.98 2.56 1.5 1.5 4.98 2.56 1.5 2.54 1.3 2.49 2.49 2.06 5.92 4.73 1.35 1.35 1.35 4.73 3.23 2.22 0 5.92 2.06 4.73 5.92 4.73 4.73 2.06 7.23 8.3 4.98 2.49 7.08 7.08 1.5 1.5 1.5 1.5 1.5 1.5 2.56 4.98 1.5 7.08 1.5 2.49 2.47 1.48 1.48 1.48 1.48 1.48 1.48 1.48 1.48 2.47 1.48 0 0 0 0 0
0 0 1.66 1.66 1.66 0.94 0 0.94 0.46 0.45 0.45 0.45 0.45 0.45 2.96 0 0 0 0 0 0.62 0.62 0 0 0.76 0.51 1.35 0.51 1.7 1.7 1.7 4.98 2.54 4.98 1.5 1.5 1.5 1.5 2.54 2.49 1.5 4.98 1.35 2.06 5.92 2.06 2.06 2.06 4.73 1.35 1.35 5.92 0 5.92 9.05 9.05 4.73 4.73 2.21 4.73 2.56 2.56 2.56 1.5 1.5 2.49 2.49 2.49 4.26 4.26 1.5 2.56 2.56 2.42 11.8 2.49 11.8 2.49 4.98 1.48 1.48 1.48 1.48 1.48 1.48 1.48 1.48 1.33 0.89 0 0 0 0
0 0 1.66 1.66 0.94 0.94 0.94 0 0.45 0.45 0.45 0.45 0.45 2.07 0 0 0 0 0 0.62 0.62 0 0 0.51 0.46 0.51 2.58 0.45 0.45 1.7 1.7 2.56 1.5 1.5 1.5 1.5 1.5 1.5 1.5 1.5 1.5 4.98 2.49 2.06 2.06 2.06 2.06 2.06 2.06 4.73 1.35 1.35 0 0 5.92 5.92 5.92 4.73 4.73 7.23 4.26 4.26 2.56 2.49 1.5 4.98 2.49 2.49 4.98 2.49 2.49 2.56 2.56 1.5 1.5 2.56 11.8 2.49 8.3 2.47 2.47 2.47 2.47 2.47 2.47 2.47 1.48 0.89 1.48 0 0 0 0
0 0 0 1.66 0.46 0.94 0.46 0.58 0.74 0.45 0.45 0.51 1.81 2.96 0 0 0 0 0 0.62 0.62 0 0.51 0.51 0.51 0.46 1.77 0.51 1.7 1.7 1.7 1.7 1.7 1.7 4.98 4.98 4.98 4.98 2.56 1.5 1.5 2.49 2.49 2.06 2.06 2.06 2.06 2.06 2.06 2.06 1.35 2.06 2.06 0 0 5.92 4.73 4.73 4.73 4.98 2.56 1.5 1.48 4.98 1.5 1.5 1.5 1.5 4.98 2.49 2.49 2.56 2.56 1.5 2.54 2.56 2.56 2.56 2.56 2.49 2.47 4.98 2.47 1.48 1.48 1.48 1.48 1.48 1.64 0.89 0 0 0
0 0 0 0 0.94 0.46 0.94 0.94 0 0.45 0.45 0.45 2.96 0 0 0 0 0 1.03 0.6 0 0 0.51 0.51 0.51 0.46 1.57 0.51 1.7 1.7 1.7 1.7 1.7 2.49 2.49 4.98 7.08 2.56 2.56 1.5 1.5 1.5 1.5 1.35 1.35 1.35 1.35 1.35 2.06 1.35 1.35 1.35 2.06 2.06 0 0 4.73 4.73 4.98 1.5 1.5 1.48 1.48 4.98 2.49 2.49 1.5 2.49 2.49 2.49 2.49 2.49 4.98 2.49 2.54 4.98 0.88 2.56 2.56 2.56 2.49 4.98 2.47 2.54 1.48 1.48 1.48 1.48 0.89 1.48 0 0 0
0 0 0 0.94 0.94 0.94 0.94 0.58 0.45 0 0.62 1.81 2.96 0 0 0 0 0 0.6 0.6 0 0.45 0.45 0.51 0.46 0.46 0.74 0.76 0.51 1.5 1.5 1.7 2.49 4.98 4.98 7.08 11.8 11.8 11.8 4.98 8.3 1.5 1.5 1.5 1.35 1.35 1.35 1.35 1.35 1.35 1.35 4.73 1.35 1.35 1.35 0 7.08 4.73 4.98 2.47 1.5 1.48 1.48 4.98 1.5 1.5 4.98 2.49 2.49 4.98 2.49 2.49 2.49 1.5 1.5 2.49 2.13 2.42 2.56 4.26 7.08 2.56 4.98 4.98 1.48 1.48 1.48 1.48 1.48 1.64 1.64 0 0
0 0 0 0.94 0.94 0.94 0.94 0.46 0.51 0.51 0 2.96 0 0 0 0 0 1.03 0.6 0 0 0.76 0.51 0.51 0.41 0.46 0.51 1.5 0.51 1.5 1.5 1.5 1.5 4.98 4.98 11.8 11.8 4.98 2.56 4.98 4.98 1.5 1.5 1.5 1.5 1.35 1.35 4.73 1.35 1.35 1.35 1.35 1.35 1.35 1.35 2.06 0 11.8 2.56 1.48 1.48 1.48 1.48 1.5 1.5 1.5 1.5 1.5 1.5 1.5 1.5 1.5 1.5 2.49 1.5 1.5 2.42 3.61 2.42 11.8 4.26 4.26 11.8 4.98 1.48 1.48 1.48 1.48 1.48 1.64 1.62 0 0
0 0 0 0 0.58 0.58 0.74 0.41 0.74 1.84 1.09 0 0 0 0 0 0 0.76 0 0 0.51 0.76 0.76 0.51 0.46 0.51 0.51 0.76 0.45 0.51 1.7 1.5 1.5 4.98 2.49 4.98 8.3 8.3 4.98 2.56 1.5 1.5 1.5 1.5 1.35 2.06 2.06 1.35 1.35 1.35 1.35 1.35 1.35 1.35 1.35 1.35 7.08 0 1.48 1.48 1.48 1.48 1.5 1.5 2.56 1.5 1.5 1.5 1.5 1.5 1.5 1.5 1.5 2.56 4.26 1.5 0.77 0.88 0.88 1.7 2.56 11.8 11.8 11.8 2.47 2.47 2.47 2.47 2.47 1.48 0 0.87 0
0 0 0 0 0 0.46 0.45 0.41 0.41 0.41 1.84 0 0 0 0 0 0.76 0.76 0 0 0.51 0.51 0.51 0.45 0.45 0.51 0.51 1.5 1.7 1.7 1.5 2.49 2.49 1.5 4.98 4.98 4.98 4.98 2.49 2.49 2.49 1.5 1.5 1.35 1.35 1.35 2.06 2.06 2.06 2.06 2.06 2.06 2.06 7.23 7.23 4.73 4.73 0 0 1.48 1.48 1.5 1.5 1.5 1.5 1.5 1.5 1.5 1.5 1.5 1.5 1.5 1.5 1.5 1.5 1.5 0.88 1.3 1.3 2.54 4.98 2.42 7.08 4.26 2.47 2.47 2.47 2.47 2.47 2.47 0 0.87 0
0 0 0 0 0 0 0.46 0.45 0.41 2.96 2.96 0 0 0 0 0 0.76 1.5 0 0.51 0.51 0.51 0.51 2.58 0.51 0.51 0.51 1.7 1.7 1.7 2.54 4.98 2.49 8.3 4.98 4.98 4.98 4.98 2.49 2.49 2.49 2.49 4.26 2.06 2.06 2.06 7.23 2.06 2.06 2.06 2.06 2.06 2.06 1.35 4.73 4.73 2.56 1.5 0 0 1.48 1.48 1.5 1.5 1.5 4.98 1.5 1.5 1.5 1.5 1.5 1.5 1.5 1.5 1.5 1.5 1.5 1.3 0.88 1.3 2.42 3.61 2.42 11.8 11.8 4.98 1.48 1.48 1.48 1.48 0 0 0
0 0 0 0 0 0 0 0.45 0.51 1.84 0 0 0 0 0 0.76 0.76 0 0 0.51 0.51 0.51 0.51 1.77 0.51 0.45 0.51 1.5 1.7 2.54 1.7 2.54 4.98 4.98 8.3 4.98 4.98 8.3 1.5 2.49 2.49 2.49 2.49 4.98 1.35 1.35 2.06 2.06 2.06 2.06 2.06 4.73 1.35 4.73 2.06 4.73 4.73 1.5 1.48 0 0 1.48 1.5 1.5 2.49 1.5 1.5 2.49 2.49 2.49 1.5 1.48 1.48 1.5 1.5 1.5 1.5 0.88 1.3 0.88 2.56 2.42 0.88 2.56 1.7 2.47 2.47 2.47 1.48 0 0 0 0
0 0 0 0 0 0 0 0 2.96 2.96 0 0 0 0 1.27 0.72 0 0 0.45 0.45 0.45 0.45 0.45 1.57 1.57 0.51 0.51 1.7 1.5 1.7 1.3 1.7 2.54 4.98 2.49 4.98 8.3 2.49 2.49 4.98 2.49 2.49 4.98 4.98 2.06 2.06 2.06 2.06 2.06 2.06 2.06 2.06 3.37 3.37 4.73 2.06 2.49 2.47 2.47 1.48 0 0 1.48 1.5 8.3 2.49 2.49 1.5 2.49 2.49 2.49 1.5 2.49 2.49 1.5 2.49 1.5 1.5 0.88 1.3 2.56 0.88 2.42 2.56 2.56 2.47 2.47 0 0 0 0 0 0
0 0 0 0 0 0 0 0 2.96 0 0 0 0 0 0.72 0.72 0 0.51 0.51 0.51 0.51 0.51 0.51 1.77 0.83 2.58 0.51 0.51 1.7 1.3 1.7 1.3 1.5 1.5 2.49 2.49 1.5 1.5 1.5 1.5 1.5 1.5 1.35 4.98 1.35 1.35 1.35 1.35 1.35 4.73 1.35 2.06 2.06 4.73 7.23 2.49 2.47 2.47 2.47 2.47 1.48 0 1.5 1.5 4.98 1.5 1.5 4.98 1.5 1.5 1.5 1.5 2.49 2.49 2.49 2.49 1.5 4.98 2.56 1.7 2.13 2.42 3.61 2.56 2.56 2.56 0 0 0 0 0 0 0
0 0 0 0 0 0 0 0 0 0 0 0 0 1.27 0.72 0 0 0.51 0.45 0.45 0.88 0.51 0.74 0.51 0.51 1.57 1.7 0.51 1.7 4.98 1.7 1.3 1.7 1.5 4.98 4.98 2.49 2.49 2.49 2.49 1.5 2.49 2.06 4.73 7.23 1.35 2.06 1.35 1.35 1.35 1.35 2.06 2.06 2.06 4.73 2.49 2.47 2.47 2.47 2.47 2.47 1.48 0 1.5 1.5 1.5 1.5 1.5 1.5 1.5 2.49 2.49 2.49 2.54 1.5 1.5 4.98 2.56 4.26 1.5 1.7 1.7 2.42 11.8 2.56 0 0 0 0 0 0 0 0
0 0 0 0 0 0 0 0 0 0 0 0 0 0.72 0.72 0 0.51 0.59 0.51 0.45 0.45 0.77 1.5 0.51 0.51 0.83 1.57 1.7 2.54 2.54 1.7 1.7 2.54 1.7 2.56 2.56 2.56 2.49 2.49 2.54 4.98 4.98 2.06 2.06 2.06 2.06 2.06 2.06 2.06 3.37 7.23 7.23 3.37 4.73 2.06 2.49 2.47 2.47 2.47 2.47 2.47 2.47 1.48 0 1.5 1.5 1.5 1.5 1.5 2.49 1.5 4.98 8.3 2.54 2.49 2.49 1.5 4.98 2.49 1.7 1.7 1.7 2.42 7.08 0 0 0 0 0 0 0 0 0
0 0 0 0 0 0 0 0 0 0 0 0 1.27 0.72 0 0 0.59 0.59 0.45 0.45 0.51 0.51 1.7 0.51 0.51 0.51 1.7 0.83 4.98 1.7 1.7 4.98 2.54 2.56 2.56 4.98 2.56 2.54 1.5 4.98 4.98 4.26 2.06 2.06 2.06 2.06 4.73 1.35 1.35 2.06 4.73 3.37 4.73 9.05 2.06 1.48 2.56 1.48 1.48 1.48 1.48 1.48 1.48 0 0 1.48 1.5 2.49 1.5 1.5 1.5 1.5 1.5 1.5 1.5 1.5 2.49 4.98 2.49 8.3 1.7 2.13 3.61 7.08 0 0 0 0 0 0 0 0 0
0 0 0 0 0 0 0 0 0 0 0 0 0.72 0 0 0.59 0.59 0.46 0.45 0.51 0.51 0.51 2.54 0.51 0.51 0.51 0.83 0.83 2.56 1.7 1.7 4.98 1.3 2.56 2.56 1.7 4.26 2.54 2.56 4.98 4.98 4.98 1.35 2.06 1.35 1.35 2.06 1.35 1.35 1.35 7.23 4.73 4.73 5.92 2.06 2.47 2.47 2.47 2.47 2.47 2.47 2.47 2.47 2.47 0 0 1.48 0.76 1.5 1.5 1.5 1.5 1.5 1.5 1.5 1.5 1.5 2.49 2.49 1.5 3.61 2.42 3.61 0 0 0 0 0 0 0 0 0 0
0 0 0 0 0 0 0 0 0 0 0 0 0 0 0 0.59 0.46 0.59 0.51 0.51 0.51 0.51 1.5 0.51 0.51 0.51 0.83 1.77 2.21 1.7 0.83 1.77 4.98 2.56 1.7 2.54 1.7 4.26 4.98 2.56 2.58 8.3 4.73 1.35 2.06 2.06 1.35 1.35 1.35 1.35 4.73 4.73 9.05 9.05 2.06 2.49 2.47 2.47 2.47 2.49 2.49 2.47 2.47 2.47 2.47 0 0 0.76 1.48 1.48 1.5 1.5 2.56 2.49 2.49 2.49 2.49 1.5 1.5 1.5 1.5 1.5 2.42 0 0 0 0 0 0 0 0 0 0
0 0 0 0 0 0 0 0 0 0 0 0 0 0 2.03 0.59 0.59 0.59 0.51 0.51 0.51 0.76 0.51 0.51 0.51 0.51 0.51 1.35 4.73 1.2 1.2 0.83 2.21 2.21 2.56 1.7 2.54 1.7 8.3 4.98 4.73 2.58 7.23 2.58 1.35 2.06 2.06 1.35 1.35 1.35 1.35 4.73 3.37 9.05 2.06 1.5 1.48 1.48 1.48 1.5 1.5 1.48 1.48 1.48 1.48 1.48 0 0.76 1.48 1.48 1.48 1.48 2.49 2.49 2.49 1.5 1.5 1.5 1.5 1.5 1.5 1.5 2.49 0 0 0 0 0 0 0 0 0 0
0 0 0 0 0 0 0 0 0 0 0 0 0 0 2.02 2.02 0.59 0.59 0.59 0.51 0.76 0.76 0.51 0.51 0.51 0.51 0.51 1.35 1.35 0.74 0.83 1.2 1.77 4.73 2.21 1.57 1.77 1.77 2.21 2.06 2.58 1.35 1.35 2.58 1.77 1.35 2.06 2.06 1.35 1.35 2.21 2.06 4.73 7.23 5.92 2.49 2.49 2.47 2.47 2.49 2.49 1.5 1.48 1.48 1.48 1.48 2.56 0 1.48 1.48 1.48 1.48 1.48 1.5 1.5 1.5 1.5 1.5 1.5 2.54 1.5 1.48 0 0 0 0 0 0 0 0 0 0 0
0 0 0 0 0 0 0 0 0 0 0 0 0 0 0 0.59 0.59 0.59 0.59 0.59 0.76 0.76 0.51 0.51 0.51 0.51 0.51 1.35 1.35 0.74 1.35 0.51 0.83 4.73 1.77 1.77 1.77 1.77 4.73 1.35 1.35 2.06 2.58 4.73 2.58 1.77 2.06 2.06 2.06 4.73 2.06 3.37 2.06 2.06 4.73 1.5 1.5 1.5 2.49 1.5 1.5 1.48 1.48 1.48 1.48 1.48 4.26 2.42 0 1.48 1.48 1.48 2.47 2.56 2.56 2.56 4.98 1.48 4.98 2.54 1.48 2.47 0 0 0 0 0 0 0 0 0 0 0
0 0 0 0 0 0 0 0 0 0 0 0 0 0 0 0 2.03 0.97 0.97 0.59 0.59 0.76 0.51 0.51 0.51 0.51 0.51 1.35 1.35 1.77 0.51 0.51 0.83 0.83 1.35 1.35 0.74 1.35 1.22 1.22 1.22 1.35 1.35 1.35 1.77 0.83 2.21 2.21 2.06 2.06 4.73 7.23 2.06 4.73 2.06 2.06 2.49 4.98 1.5 1.5 1.5 1.48 1.48 1.48 4.98 4.98 2.56 7.08 0 0 1.48 1.48 3.61 11.8 11.8 7.08 11.8 4.98 4.98 2.47 2.47 1.48 0 0 0 0 0 0 0 0 0 0 0
0 0 0 0 0 0 0 0 0 0 0 0 0 0 0 0 0 0.97 0.97 0.97 0.59 0.59 0.51 0.51 0.51 0.51 0.51 1.5 0.51 0.76 0.51 0.83 0.83 1.35 1.22 1.22 1.22 0.66 1.22 1.22 1.22 1.22 1.22 1.35 0.83 0.83 1.77 2.21 2.06 4.73 4.73 4.73 2.06 2.06 4.73 1.35 1.5 4.98 4.98 4.98 4.98 4.98 1.48 1.48 2.47 1.48 4.98 3.61 11.8 0 0 1.48 1.48 2.13 11.8 11.8 11.8 11.8 11.8 11.8 0 0 0 0 0 0 0 0 0 0 0 0 0
0 0 0 0 0 0 0 0 0 0 0 0 0 0 0 0 0 0 0.97 0.97 0.59 0.59 0.51 0.51 0.51 0.51 0.51 0.51 0.51 1.7 1.35 0.76 0.51 1.22 1.22 1.22 1.22 1.22 1.22 1.22 1.22 1.22 1.22 1.35 0.83 1.77 0.83 1.35 2.58 4.73 4.73 1.35 1.35 1.35 2.58 2.06 4.98 4.98 4.98 4.26 8.3 4.26 4.26 2.47 1.48 2.47 2.47 3.61 2.13 7.08 0 0 2.13 2.13 11.8 7.08 2.54 8.3 7.08 0 0 0 0 0 0 0 0 0 0 0 0 0 0
0 0 0 0 0 0 0 0 0 0 0 0 0 0 0 0 0 0 0 0.97 0.97 0.59 0.59 0.51 0.51 0.51 0.51 0.51 0.51 0.76 4.98 0.76 1.5 1.48 1.48 1.48 1.48 1.48 1.48 0.76 1.22 1.22 1.22 2.06 1.35 0.83 0.83 2.21 1.77 2.21 2.06 2.06 2.06 2.06 4.98 2.54 4.26 4.98 4.98 8.3 4.98 4.98 4.98 1.5 1.48 1.48 2.47 2.54 7.08 1.48 1.48 0 1.48 2.56 4.26 2.47 2.47 0 0 0 0 0 0 0 0 0 0 0 0 0 0 0 0
0 0 0 0 0 0 0 0 0 0 0 0 0 0 0 0 0 0 0 0 0.97 0.59 0.59 0.59 0.51 0.51 0.51 0.51 0.51 1.5 1.5 0.76 1.5 1.48 1.48 1.48 1.48 1.48 1.48 1.48 1.48 1.48 1.86 3.61 1.57 1.7 1.2 2.21 1.77 2.21 2.58 2.06 4.73 2.49 4.98 2.54 2.54 4.98 4.98 4.98 4.98 4.98 4.98 2.49 2.49 2.49 4.98 4.98 2.47 2.47 2.47 1.48 0 2.56 2.54 8.3 0 0 0 0 0 0 0 0 0 0 0 0 0 0 0 0 0
0 0 0 0 0 0 0 0 0 0 0 0 0 0 0 0 0 0 0 0 0.59 0.97 0.59 0.59 0.59 0.51 0.51 0.51 0.51 1.5 1.5 1.5 1.5 1.48 1.48 1.48 1.48 1.48 1.48 1.7 1.48 1.48 1.48 2.42 7.08 2.58 1.57 1.77 1.77 2.21 2.58 1.5 2.06 2.49 4.98 4.98 2.54 1.3 4.98 1.5 1.5 1.5 1.5 1.5 1.5 4.98 4.98 2.56 4.26 2.47 2.47 2.47 0 0 2.54 0 0 0 0 0 0 0 0 0 0 0 0 0 0 0 0 0 0
0 0 0 0 0 0 0 0 0 0 0 0 0 0 0 0 0 0 0 0 0 0.59 0.59 0.97 0.59 0.59 0.51 0.51 0.51 1.5 1.5 1.5 1.5 1.5 1.48 1.48 1.48 1.48 1.48 0.76 1.48 1.48 2.42 1.7 2.56 4.26 0.76 1.5 1.5 4.73 2.54 7.23 4.98 4.98 4.98 7.08 2.49 2.54 2.49 2.49 8.3 1.5 1.5 1.5 1.5 1.5 2.56 2.56 4.98 2.47 2.47 2.47 2.47 0 0 0 0 0 0 0 0 0 0 0 0 0 0 0 0 0 0 0 0
0 0 0 0 0 0 0 0 0 0 0 0 0 0 0 0 0 0 0 0 0 0 1.62 1.62 0.97 0.59 0.59 0.51 0.51 1.5 1.5 1.5 1.5 1.5 1.5 1.48 1.48 1.48 1.48 0.76 1.48 0.88 0.76 0.51 1.5 1.5 1.5 1.5 1.5 1.5 2.54 1.7 4.98 4.98 11.8 8.3 8.3 2.54 8.3 4.98 8.3 2.49 2.49 1.5 1.5 1.5 7.08 2.56 4.98 4.98 2.47 1.48 0 0 0 0 0 0 0 0 0 0 0 0 0 0 0 0 0 0 0 0 0
0 0 0 0 0 0 0 0 0 0 0 0 0 0 0 0 0 0 0 0 0 0 0 7.92 0.59 0.97 0.59 0.59 0.51 1.5 1.5 1.7 1.5 1.5 1.5 1.48 1.48 1.48 1.48 1.48 0.88 0.88 1.5 0.76 1.5 1.5 1.5 1.5 1.5 1.5 1.7 2.54 1.7 11.8 7.08 11.8 8.3 11.8 11.8 8.3 4.98 1.5 1.5 4.98 4.98 7.08 4.98 4.26 4.26 8.3 1.48 0 0 0 0 0 0 0 0 0 0 0 0 0 0 0 0 0 0 0 0 0 0
0 0 0 0 0 0 0 0 0 0 0 0 0 0 0 0 0 0 0 0 0 0 0 0 7.92 0.59 0.97 0.59 0.59 1.5 0.51 1.5 4.98 1.5 1.7 1.5 1.48 1.48 1.48 1.48 1.48 0.51 1.5 1.5 0.76 1.5 1.5 1.5 1.5 0.76 0.51 1.7 2.54 2.42 11.8 7.08 11.8 11.8 11.8 8.3 4.26 2.56 2.49 4.98 7.08 4.98 4.98 2.49 2.49 0 0 0 0 0 0 0 0 0 0 0 0 0 0 0 0 0 0 0 0 0 0 0 0
0 0 0 0 0 0 0 0 0 0 0 0 0 0 0 0 0 0 0 0 0 0 0 0 0 7.92 0.59 0.97 0.59 0.51 0.59 1.5 1.5 1.7 1.7 1.5 1.5 0.88 1.48 1.48 1.48 1.5 0.51 1.5 1.5 0.76 1.5 1.5 1.5 0.76 0.51 1.5 2.42 3.61 1.7 2.42 4.98 4.98 2.56 4.98 8.3 2.49 4.98 4.98 3.61 11.8 11.8 4.98 0 0 0 0 0 0 0 0 0 0 0 0 0 0 0 0 0 0 0 0 0 0 0 0 0
0 0 0 0 0 0 0 0 0 0 0 0 0 0 0 0 0 0 0 0 0 0 0 0 0 0 4.25 0.59 0.59 0.59 0.59 1.5 1.5 0.51 0.76 1.5 2.54 1.5 1.48 1.48 1.48 1.5 1.5 0.51 1.5 1.5 0.76 1.5 1.48 0.51 0.76 1.5 1.5 1.7 2.56 3.61 1.3 4.26 1.5 2.56 2.54 1.5 4.98 11.8 11.8 11.8 4.98 0 0 0 0 0 0 0 0 0 0 0 0 0 0 0 0 0 0 0 0 0 0 0 0 0 0
0 0 0 0 0 0 0 0 0 0 0 0 0 0 0 0 0 0 0 0 0 0 0 0 0 0 7.92 0.59 0.97 0.59 0.59 1.8 0.97 0.76 1.7 1.5 1.5 1.5 1.48 1.48 1.48 1.48 1.48 1.5 0.51 1.5 1.5 0.76 1.5 1.48 0.76 1.7 0.45 0.51 1.7 2.56 1.3 1.7 2.49 1.5 2.56 2.54 4.98 8.3 7.08 7.08 0 0 0 0 0 0 0 0 0 0 0 0 0 0 0 0 0 0 0 0 0 0 0 0 0 0 0
0 0 0 0 0 0 0 0 0 0 0 0 0 0 0 0 0 0 0 0 0 0 0 0 0 0 0 7.92 1.8 0.59 0.59 1.8 0.46 0.59 0.76 1.5 1.5 1.5 1.5 1.48 1.48 1.48 1.48 1.5 1.5 0.51 1.5 1.5 0.76 1.5 0.51 1.5 1.7 0.76 1.5 1.5 1.5 1.5 1.5 4.98 4.98 4.98 4.98 4.98 0 0 0 0 0 0 0 0 0 0 0 0 0 0 0 0 0 0 0 0 0 0 0 0 0 0 0 0 0
0 0 0 0 0 0 0 0 0 0 0 0 0 0 0 0 0 0 0 0 0 0 0 0 0 0 0 0 6.32 0.59 0.97 1.8 0.59 0.59 0.76 2.06 1.5 2.54 4.98 1.8 1.62 1.48 1.5 1.5 1.5 1.5 0.51 1.5 1.5 0.76 0.45 0.51 0.51 1.5 1.5 1.5 1.5 1.5 1.5 1.7 8.3 4.98 4.98 0 0 0 0 0 0 0 0 0 0 0 0 0 0 0 0 0 0 0 0 0 0 0 0 0 0 0 0 0 0
0 0 0 0 0 0 0 0 0 0 0 0 0 0 0 0 0 0 0 0 0 0 0 0 0 0 0 0 0 8 0.97 1.8 0.59 0.59 0.59 1.8 4.98 2.54 2.06 4.98 1.8 1.8 1.8 1.8 1.8 1.8 0.97 0.59 1.5 0.76 0.51 0.51 1.5 0.76 1.5 1.5 1.7 1.5 1.7 2.54 4.98 0 0 0 0 0 0 0 0 0 0 0 0 0 0 0 0 0 0 0 0 0 0 0 0 0 0 0 0 0 0 0 0
0 0 0 0 0 0 0 0 0 0 0 0 0 0 0 0 0 0 0 0 0 0 0 0 0 0 0 0 0 0 8 8 0.59 0.59 0.59 0.97 1.8 2.06 3.4 1.58 1.82 1.8 1.8 1.8 1.8 1.8 1.8 0.97 0.97 0.51 0.59 0.51 1.5 0.76 1.5 0.76 0.51 4.98 0.88 4.98 0 0 0 0 0 0 0 0 0 0 0 0 0 0 0 0 0 0 0 0 0 0 0 0 0 0 0 0 0 0 0 0 0
0 0 0 0 0 0 0 0 0 0 0 0 0 0 0 0 0 0 0 0 0 0 0 0 0 0 0 0 0 0 0 8 8 0.59 0.59 1.8 0.97 1.8 2.06 2.06 2.95 1.8 1.8 1.8 1.8 1.8 1.8 1.8 0.97 0.59 0.59 0.59 1.5 1.5 1.5 1.7 1.5 0.88 0 0 0 0 0 0 0 0 0 0 0 0 0 0 0 0 0 0 0 0 0 0 0 0 0 0 0 0 0 0 0 0 0 0 0
0 0 0 0 0 0 0 0 0 0 0 0 0 0 0 0 0 0 0 0 0 0 0 0 0 0 0 0 0 0 0 0 1.73 0.59 0.97 1.8 0.97 0.97 1.8 1.8 1.8 1.8 1.8 1.8 1.8 1.8 1.8 1.8 1.8 0.59 0.59 0.59 1.5 0.45 0.51 2.54 4.98 0 0 0 0 0 0 0 0 0 0 0 0 0 0 0 0 0 0 0 0 0 0 0 0 0 0 0 0 0 0 0 0 0 0 0 0
0 0 0 0 0 0 0 0 0 0 0 0 0 0 0 0 0 0 0 0 0 0 0 0 0 0 0 0 0 0 0 0 3.29 1.73 1.73 1.8 1.8 0.59 1.8 2.06 1.8 1.8 1.8 1.8 1.8 1.8 1.8 1.8 1.8 2.03 0.59 0.97 1.8 0.51 0.59 0 0 0 0 0 0 0 0 0 0 0 0 0 0 0 0 0 0 0 0 0 0 0 0 0 0 0 0 0 0 0 0 0 0 0 0 0 0
0 0 0 0 0 0 0 0 0 0 0 0 0 0 0 0 0 0 0 0 0 0 0 0 0 0 0 0 0 0 0 0 0 10.16 1.73 3.29 1.73 0.8 0.59 0.97 1.8 1.8 1.8 1.8 1.8 1.8 1.8 1.8 1.8 2.02 2.02 2.58 1.8 0.59 0 0 0 0 0 0 0 0 0 0 0 0 0 0 0 0 0 0 0 0 0 0 0 0 0 0 0 0 0 0 0 0 0 0 0 0 0 0 0
0 0 0 0 0 0 0 0 0 0 0 0 0 0 0 0 0 0 0 0 0 0 0 0 0 0 0 0 0 0 0 0 0 0 3.29 1.73 0.8 0.59 0.8 0.97 1.8 1.8 1.8 1.8 1.8 1.8 1.8 1.8 1.8 0.59 2.06 4.25 0 0 0 0 0 0 0 0 0 0 0 0 0 0 0 0 0 0 0 0 0 0 0 0 0 0 0 0 0 0 0 0 0 0 0 0 0 0 0 0 0
0 0 0 0 0 0 0 0 0 0 0 0 0 0 0 0 0 0 0 0 0 0 0 0 0 0 0 0 0 0 0 0 0 0 0 3.29 1.73 1.73 1.73 1.73 1.73 1.8 1.8 1.8 2.06 1.8 1.8 1.8 0.59 0.59 3.4 0 0 0 0 0 0 0 0 0 0 0 0 0 0 0 0 0 0 0 0 0 0 0 0 0 0 0 0 0 0 0 0 0 0 0 0 0 0 0 0 0 0
0 0 0 0 0 0 0 0 0 0 0 0 0 0 0 0 0 0 0 0 0 0 0 0 0 0 0 0 0 0 0 0 0 0 0 0 1.73 1.73 1.73 3.29 1.73 1.73 1.8 2.06 1.8 1.8 1.82 1.8 0.59 0 0 0 0 0 0 0 0 0 0 0 0 0 0 0 0 0 0 0 0 0 0 0 0 0 0 0 0 0 0 0 0 0 0 0 0 0 0 0 0 0 0 0 0
0 0 0 0 0 0 0 0 0 0 0 0 0 0 0 0 0 0 0 0 0 0 0 0 0 0 0 0 0 0 0 0 0 0 0 0 0 1.73 1.73 3.29 1.73 1.73 2.06 2.06 6.32 1.8 1.8 0 0 0 0 0 0 0 0 0 0 0 0 0 0 0 0 0 0 0 0 0 0 0 0 0 0 0 0 0 0 0 0 0 0 0 0 0 0 0 0 0 0 0 0 0 0
0 0 0 0 0 0 0 0 0 0 0 0 0 0 0 0 0 0 0 0 0 0 0 0 0 0 0 0 0 0 0 0 0 0 0 0 0 0 3.29 3.29 3.29 1.73 0.89 3.4 6.32 6.32 0 0 0 0 0 0 0 0 0 0 0 0 0 0 0 0 0 0 0 0 0 0 0 0 0 0 0 0 0 0 0 0 0 0 0 0 0 0 0 0 0 0 0 0 0 0 0
0 0 0 0 0 0 0 0 0 0 0 0 0 0 0 0 0 0 0 0 0 0 0 0 0 0 0 0 0 0 0 0 0 0 0 0 0 0 0 1.73 3.29 0.89 0.89 3.65 0 0 0 0 0 0 0 0 0 0 0 0 0 0 0 0 0 0 0 0 0 0 0 0 0 0 0 0 0 0 0 0 0 0 0 0 0 0 0 0 0 0 0 0 0 0 0 0 0
0 0 0 0 0 0 0 0 0 0 0 0 0 0 0 0 0 0 0 0 0 0 0 0 0 0 0 0 0 0 0 0 0 0 0 0 0 0 0 3.29 3.29 0.89 1.91 0 0 0 0 0 0 0 0 0 0 0 0 0 0 0 0 0 0 0 0 0 0 0 0 0 0 0 0 0 0 0 0 0 0 0 0 0 0 0 0 0 0 0 0 0 0 0 0 0 0
0 0 0 0 0 0 0 0 0 0 0 0 0 0 0 0 0 0 0 0 0 0 0 0 0 0 0 0 0 0 0 0 0 0 0 0 0 0 0 0 3.29 0 0 0 0 0 0 0 0 0 0 0 0 0 0 0 0 0 0 0 0 0 0 0 0 0 0 0 0 0 0 0 0 0 0 0 0 0 0 0 0 0 0 0 0 0 0 0 0 0 0 0 0
