ncols 93
nrows 126
xllcorner 63215
yllcorner 363330
cellsize 5
NODATA_value -9999
0 0 0 0 0 0 0 0 0 0 0 0 0 0 0 0 0 0 0 0 0 0 0 0 0 0 0 0 0 0 0 0 0 0 0 0 0 0 0 0 0 0 0 0 0 0 0 0 0 0 0 0 0 0 0 0 0 0 0 0 0 0 0 0 0 0 0 0 0 0 0 0 0 0 0 0 0 0 0 0 0 0 0 0 0 0 0 0 0 0 0 0 0
0 0 0 0 0 0 0 0 0 0 0 0 0 0 0 0 0 0 0 0 0 0 0 0 0 0 0 0 0 0 0 0 0 0 0 0 0 0 0 0 0 0 0 0 0 0 0 0 0 0 0 0 0 0 0 0 0 0 0 0 0 0 0 0 0 0 0 0 0 0 0 0 0 0 0 0 0 0 0 0 0 0 0 0 0 0 0 0 0 0 0 0 0
0 0 0 0 0 0 0 0 0 0 0 0 0 0 0 0 0 0 0 0 0 0 0 0 0 0 0 0 0 0 0 0 0 0 0 0 0 0 0 0 0 0 0 0 0 0 0 0 0 0 0 0 0 0 0 0 0 0 0 0 0 0 0 0 0 0 0 0 0 0 0 0 0 0 0 0 0 0 0 0 0 0 0 0 0 0 0 0 0 0 0 0 0
0 0 0 0 0 0 0 0 0 0 0 0 0 0 0 0 0 0 0 0 0 0 0 0 0 0 0 0 0 0 0 0 0 0 0 0 0 0 0 0 0 0 0 0 0 0 0 0 0 0 0 0 0 0 0 0 0 0 0 0 0 0 0 0 0 0 0 0 0 0 0 0 0 0 0 0 0 0 0 0 0 0 0 0 0 0 0 0 0 0 0 0 0
0 0 0 0 0 0 0 0 0 0 0 0 0 0 0 0 0 0 0 0 0 0 0 0 0 0 0 0 0 0 0 0 0 0 0 0 0 0 0 0 0 0 0 0 0 0 0 0 0 0 0 0 0 0 0 0 0 0 0 0 0 0 0 0 0 0 0 0 0 0 0 0 0 0 0 0 0 0 0 0 0 0 0 0 0 0 0 0 0 0 0 0 0
0 0 0 0 0 0 0 0 0 0 0 0 0 0 0 0 0 0 0 0 0 0 0 0 0 0 0 0 0 0 0 0 0 0 0 0 0 0 0 0 0 0 0 0 0 0 0 0 0 0 0 0 0 0 0 0 0 0 0 0 0 0 0 0 0 0 0 0 0 0 0 0 0 0 0 0 0 0 0 0 0 0 0 0 0 0 0 0 0 0 0 0 0
0 0 0 0 0 0 0 0 0 0 0 0 0 0 0 0 0 0 0 0 0 0 0 0 0 0 0 0 0 0 0 0 0 0 0 0 0 0 0 0 0 0 0 0 0 0 0 0 0 0 0 0 0 0 0 0 0 0 0 0 0 0 0 0 0 0 0 0 0 0 0 0 0 0 0 0 0 0 0 0 0 0 0 0 0 0 0 0 0 0 0 0 0
0 0 0 0 0 0 0 0 0 0 0 0 0 0 0 0 0 0 0 0 0 0 0 0 0 0 0 0 0 0 0 0 0 0 0 0 0 0 0 0 0 0 0 0 0 0 0 0 0 0 0 0 0 0 0 0 0 0 0 0 0 0 0 0 0 0 0 0 0 0 0 0 0 0 0 0 0 0 0 0 0 0 0 0 0 0 0 0 0 0 0 0 0
0 0 0 0 0 0 0 0 0 0 0 0 0 0 0 0 0 0 0 0 0 0 0 0 0 0 0 0 0 0 0 0 0 0 0 0 0 0 0 0 0 0 0 0 0 0 0 0 0 0 0 0 0 0 0 0 0 0 0 0 0 0 0 0 0 0 0 0 0 0 0 0 0 0 0 0 0 0 0 0 0 0 0 0 0 0 0 0 0 0 0 0 0
0 0 0 0 0 0 0 0 0 0 0 0 0 0 0 0 0 0 0 0 0 0 0 0 0 0 0 0 0 0 0 0 0 0 0 0 0 0 0 0 0 0 0 0 0 0 0 0 0 0 0 0 0 0 0 0 0 0 0 0 0 0 0 0 0 0 0 0 0 0 0 0 0 0 0 0 0 0 0 0 0 0 0 0 0 0 0 0 0 0 0 0 0
0 0 0 0 0 0 0 0 0 0 0 0 0 0 0 0 0 0 0 0 0 0 0 0 0 0 0 0 0 0 0 0 0 0 0 0 0 0 0 0 0 0 0 0 0 0 0 0 0 0 0 0 0 0 0 0 0 0 0 0 0 0 0 0 0 0 0 0 0 0 0 0 0 0 0 0 0 0 0 0 0 0 0 0 0 0 0 0 0 0 0 0 0
0 0 0 0 0 0 0 0 0 0 0 0 0 0 0 0 0 0 0 0 0 0 0 0 0 0 0 0 0 0 0 0 0 0 0 0 0 0 0 0 0 0 0 0 0 0 0 0 0 0 0 0 0 0 0 0 0 0 0 0 0 0 0 0 0 0 0 0 0 0 0 0 0 0 0 0 0 0 0 0 0 0 0 0 0 0 0 0 0 0 0 0 0
0 0 0 0 0 0 0 0 0 0 0 0 0 0 0 0 0 0 0 0 0 0 0 0 0 0 0 0 0 0 0 0 0 0 0 0 0 0 0 0 0 0 0 0 0 0 0 0 0 0 0 0 0 0 0 0 0 0 0 0 0 0 0 0 0 0 0 0 0 0 0 0 0 0 0 0 0 0 0 0 0 0 0 0 0 0 0 0 0 0 0 0 0
0 0 0 0 0 0 0 0 0 0 0 0 0 0 0 0 0 0 0 0 0 0 0 0 0 0 0 0 0 0 0 0 0 0 0 0 0 0 0 0 0 0 0 0 0 0 0 0 0 0 0 0 0 0 0 0 0 0 0 0 0 0 0 0 0 0 0 0 0 0 0 0 0 0 0 0 0 0 0 0 0 0 0 0 0 0 0 0 0 0 0 0 0
0 0 0 0 0 0 0 0 0 0 0 0 0 0 0 0 0 0 0 0 0 0 0 0 0 0 0 0 0 0 0 0 0 0 0 0 0 0 0 0 0 0 0 0 0 0 0 0 0 0 0 0 0 0 0 0 0 0 0 0 0 0 0 0 0 0 0 0 0 0 0 0 0 0 0 0 0 0 0 0 0 0 0 0 0 0 0 0 0 0 0 0 0
0 0 0 0 0 0 0 0 0 0 0 0 0 0 0 0 0 0 0 0 0 0 0 0 0 0 0 0 0 0 0 0 0 0 0 0 0 0 0 0 0 0 0 0 0 0 0 0 0 0 0 0 0 0 0 0 0 0 0 0 0 0 0 0 0 0 0 0 0 0 0 0 0 0 0 0 0 0 0 0 0 0 0 0 0 0 0 0 0 0 0 0 0
0 0 0 0 0 0 0 0 0 0 0 0 0 0 0 0 0 0 0 0 0 0 0 0 0 0 0 0 0 0 0 0 0 0 0 0 0 0 0 0 0 0 0 0 0 0 0 0 0 0 0 0 0 0 0 0 0 0 0 0 0 0 0 0 0 0 0 0 0 0 0 0 0 0 0 0 0 0 0 0 0 0 0 0 0 0 0 0 0 0 0 0 0
0 0 0 0 0 0 0 0 0 0 0 0 0 0 0 0 0 0 0 0 0 0 0 0 0 0 0 0 0 0 0 0 0 0 0 0 0 0 0 0 0 0 0 0 0 0 0 0 0 0 0 0 0 0 0 0 0 0 0 0 0 0 0 0 0 0 0 0 0 0 0 0 0 0 0 0 0 0 0 0 0 0 0 0 0 0 0 0 0 0 0 0 0
0 0 0 0 0 0 0 0 0 0 0 0 0 0 0 0 0 0 0 0 0 0 0 0 0 0 0 0 0 0 0 0 0 0 0 0 0 0 0 0 0 0 0 0 0 0 0 0 0 0 0 0 0 0 0 0 0 0 0 0 0 0 0 0 0 0 0 0 0 0 0 0 0 0 0 0 0 0 0 0 0 0 0 0 0 0 0 0 0 0 0 0 0
0 0 0 0 0 0 0 0 0 0 0 0 0 0 0 0 0 0 0 0 0 0 0 0 0 0 0 0 0 0 0 0 0 0 0 0 0 0 0 0 0 0 0 0 0 0 0 0 0 0 0 0 0 0 0 0 0 0 0 0 0 0 0 0 0 0 0 0 0 0 0 0 0 0 0 0 0 0 0 0 0 0 0 0 0 0 0 0 0 0 0 0 0
0 0 0 0 0 0 0 0 0 0 0 0 0 0 0 0 0 0 0 0 0 0 0 0 0 0 0 0 0 0 0 0 0 0 0 0 0 0 0 0 0 0 0 0 0 0 0 0 0 0 0 0 0 0 0 0 0 0 0 0 0 0 0 0 0 0 0 0 0 0 0 0 0 0 0 0 0 0 0 0 0 0 0 0 0 0 0 0 0 0 0 0 0
0 0 0 0 0 0 0 0 0 0 0 0 0 0 0 0 0 0 0 0 0 0 0 0 0 0 0 0 0 0 0 0 0 0 0 0 0 0 0 0 0 0 0 0 0 0 0 0 0 0 0 0 0 0 0 0 0 0 0 0 0 0 0 0 0 0 0 0 0 0 0 0 0 0 0 0 0 0 0 0 0 0 0 0 0 0 0 0 0 0 0 0 0
0 0 0 0 0 0 0 0 0 0 0 0 0 0 0 0 0 0 0 0 0 0 0 0 0 0 0 0 0 0 0 0 0 0 0 0 0 0 0 0 0 0 0 0 0 0 0 0 0 0 0 0 0 0 0 0 0 0 0 0 0 0 0 0 0 0 0 0 0 0 0 0 0 0 0 0 0 0 0 0 0 0 0 0 0 0 0 0 0 0 0 0 0
0 0 0 0 0 0 0 0 0 0 0 0 0 0 0 0 0 0 0 0 0 0 0 0 0 0 0 0 0 0 0 0 0 0 0 0 0 0 0 0 0 0 0 0 0 0 0 0 0 0 0 0 0 0 0 0 0 0 0 0 0 0 0 0 0 0 0 0 0 0 0 0 0 0 0 0 0 0 0 0 0 0 0 0 0 0 0 0 0 0 0 0 0
0 0 0 0 0 0 0 0 0 0 0 0 0 0 0 0 0 0 0 0 0 0 0 0 0 0 0 0 0 0 0 0 0 0 0 0 0 0 0 0 0 0 0 0 0 0 0 0 0 0 0 0 0 0 0 0 0 0 0 0 0 0 0 0 0 0 0 0 0 0 0 0 0 0 0 0 0 0 0 0 0 0 0 0 0 0 0 0 0 0 0 0 0
0 0 0 0 0 0 0 0 0 0 0 0 0 0 0 0 0 0 0 0 0 0 0 0 0 0 0 0 0 0 0 0 0 0 0 0 0 0 0 0 0 0 0 0 0 0 0 0 0 0 0 0 0 0 0 0 0 0 0 0 0 0 0 0 0 0 0 0 0 0 0 0 0 0 0 0 0 0 0 0 0 0 0 0 0 0 0 0 0 0 0 0 0
0 0 0 0 0 0 0 0 0 0 0 0 0 0 0 0 0 0 0 0 0 0 0 0 0 0 0 0 0 0 0 0 0 0 0 0 0 0 0 0 0 0 0 0 0 0 0 0 0 0 0 0 0 0 0 0 0 0 0 0 0 0 0 0 0 0 0 0 0 0 0 0 0 0 0 0 0 0 0 0 0 0 0 0 0 0 0 0 0 0 0 0 0
0 0 0 0 0 0 0 0 0 0 0 0 0 0 0 0 0 0 0 0 0 0 0 0 0 0 0 0 0 0 0 0 0 0 0 0 0 0 0 0 0 0 0 0 0 0 0 0 0 0 0 0 0 0 0 0 0 0 0 0 0 0 0 0 0 0 0 0 0 0 0 0 0 0 0 0 0 0 0 0 0 0 0 0 0 0 0 0 0 0 0 0 0
0 0 0 0 0 0 0 0 0 0 0 0 0 0 0 0 0 0 0 0 0 0 0 0 0 0 0 0 0 0 0 0 0 0 0 0 0 0 0 0 0 0 0 0 0 0 0 0 0 0 0 0 0 0 0 0 0 0 0 0 0 0 0 0 0 0 0 0 0 0 0 0 0 0 0 0 0 0 0 0 0 0 0 0 0 0 0 0 0 0 0 0 0
0 0 0 0 0 0 0 0 0 0 0 0 0 0 0 0 0 0 0 0 0 0 0 0 0 0 0 0 0 0 0 0 0 0 0 0 0 0 0 0 0 0 0 0 0 0 0 0 0 0 0 0 0 0 0 0 0 0 0 0 0 0 0 0 0 0 0 0 0 0 0 0 0 0 0 0 0 0 0 0 0 0 0 0 0 0 0 0 0 0 0 0 0
0 0 0 0 0 0 0 0 0 0 0 0 0 0 0 0 0 0 0 0 0 0 0 0 0 0 0 0 0 0 0 0 0 0 0 0 0 0 0 0 0 0 0 0 0 0 0 0 0 0 0 0 0 0 0 0 0 0 0 0 0 0 0 0 0 0 0 0 0 0 0 0 0 0 0 0 0 0 0 0 0 0 0 0 0 0 0 0 0 0 0 0 0
0 0 0 0 0 0 0 0 0 0 0 0 0 0 0 0 0 0 0 0 0 0 0 0 0 0 0 0 0 0 0 0 0 0 0 0 0 0 0 0 0 0 0 0 0 0 0 0 0 0 0 0 0 0 0 0 0 0 0 0 0 0 0 0 0 0 0 0 0 0 0 0 0 0 0 0 0 0 0 0 0 0 0 0 0 0 0 0 0 0 0 0 0
0 0 0 0 0 0 0 0 0 0 0 0 0 0 0 0 0 0 0 0 0 0 0 0 0 0 0 0 0 0 0 0 0 0 0 0 0 0 0 0 0 0 0 0 0 0 0 0 0 0 0 0 0 0 0 0 0 0 0 0 0 0 0 0 0 0 0 0 0 0 0 0 0 0 0 0 0 0 0 0 0 0 0 0 0 0 0 0 0 0 0 0 0
0 0 0 0 0 0 0 0 0 0 0 0 0 0 0 0 0 0 0 0 0 0 0 0 0 0 0 0 0 0 0 0 0 0 0 0 0 0 0 0 0 0 0 0 0 0 0 0 0 0 0 0 0 0 0 0 0 0 0 0 0 0 0 0 0 0 0 0 0 0 0 0 0 0 0 0 0 0 0 0 0 0 0 0 0 0 0 0 0 0 0 0 0
0 0 0 0 0 0 0 0 0 0 0 0 0 0 0 0 0 0 0 0 0 0 0 0 0 0 0 0 0 0 0 0 0 0 0 0 0 0 0 0 0 0 0 0 0 0 0 0 0 0 0 0 0 0 0 0 0 0 0 0 0 0 0 0 0 0 0 0 0 0 0 0 0 0 0 0 0 0 0 0 0 0 0 0 0 0 0 0 0 0 0 0 0
0 0 0 0 0 0 0 0 0 0 0 0 0 0 0 0 0 0 0 0 0 0 0 0 0 0 0 0 0 0 0 0 0 0 0 0 0 0 0 0 0 0 0 0 0 0 0 0 0 0 0 0 0 0 0 0 0 0 0 0 0 0 0 0 0 0 0 0 0 0 0 0 0 0 0 0 0 0 0 0 0 0 0 0 0 0 0 0 0 0 0 0 0
0 0 0 0 0 0 0 0 0 0 0 0 0 0 0 0 0 0 0 0 0 0 0 0 0 0 0 0 0 0 0 0 0 0 0 0 0 0 0 0 0 0 0 0 0 0 0 0 0 0 0 0 0 0 0 0 0 0 0 0 0 0 0 0 0 0 0 0 0 0 0 0 0 0 0 0 0 0 0 0 0 0 0 0 0 0 0 0 0 0 0 0 0
0 0 0 0 0 0 0 0 0 0 0 0 0 0 0 0 0 0 0 0 0 0 0 0 0 0 0 0 0 0 0 0 0 0 0 0 0 0 0 0 0 0 0 0 0 0 0 0 0 0 0 0 0 0 0 0 0 0 0 0 0 0 0 0 0 0 0 0 0 0 0 0 0 0 0 0 0 0 0 0 0 0 0 0 0 0 0 0 0 0 0 0 0
0 0 0 0 0 0 0 0 0 0 0 0 0 0 0 0 0 0 0 0 0 0 0 0 0 0 0 0 0 0 0 0 0 0 0 0 0 0 0 0 0 0 0 0 0 0 0 0 0 0 0 0 0 0 0 0 0 0 0 0 0 0 0 0 0 0 0 0 0 0 0 0 0 0 0 0 0 0 0 0 0 0 0 0 0 0 0 0 0 0 0 0 0
0 0 0 0 0 0 0 0 0 0 0 0 0 0 0 0 0 0 0 0 0 0 0 0 0 0 0 0 0 0 0 0 0 0 0 0 0 0 0 0 0 0 0 0 0 0 0 0 0 0 0 0 0 0 0 0 0 0 0 0 0 0 0 0 0 0 0 0 0 0 0 0 0 0 0 0 0 0 0 0 0 0 0 0 0 0 0 0 0 0 0 0 0
0 0 0 0 0 0 0 0 0 0 0 0 0 0 0 0 0 0 0 0 0 0 0 0 0 0 0 0 0 0 0 0 0 0 0 0 0 0 0 0 0 0 0 0 0 0 0 0 0 0 0 0 0 0 0 0 0 0 0 0 0 0 0 0 0 0 0 0 0 0 0 0 0 0 0 0 0 0 0 0 0 0 0 0 0 0 0 0 0 0 0 0 0
0 0 0 0 0 0 0 0 0 0 0 0 0 0 0 0 0 0 0 0 0 0 0 0 0 0 0 0 0 0 0 0 0 0 0 0 0 0 0 0 0 0 0 0 0 0 0 0 0 0 0 0 0 0 0 0 0 0 0 0 0 0 0 0 0 0 0 0 0 0 0 0 0 0 0 0 0 0 0 0 0 0 0 0 0 0 0 0 0 0 0 0 0
0 0 0 0 0 0 0 0 0 0 0 0 0 0 0 0 0 0 0 0 0 0 0 0 0 0 0 0 0 0 0 0 0 0 0 0 0 0 0 0 0 0 0 0 0 0 0 0 0 0 0 0 0 0 0 0 0 0 0 0 0 0 0 0 0 0 0 0 0 0 0 0 0 0 0 0 0 0 0 0 0 0 0 0 0 0 0 0 0 0 0 0 0
0 0 0 0 0 0 0 0 0 0 0 0 0 0 0 0 0 0 0 0 0 0 0 0 0 0 0 0 0 0 0 0 0 0 0 0 0 0 0 0 0 0 0 0 0 0 0 0 0 0 0 0 0 0 0 0 0 0 0 0 0 0 0 0 0 0 0 0 0 0 0 0 0 0 0 0 0 0 0 0 0 0 0 0 0 0 0 0 0 0 0 0 0
0 0 0 0 0 0 0 0 0 0 0 0 0 0 0 0 0 0 0 0 0 0 0 0 0 0 0 0 0 0 0 0 0 0 0 0 0 0 0 0 0 0 0 0 0 0 0 0 0 0 0 0 0 0 0 0 0 0 0 0 0 0 0 0 0 0 0 0 0 0 0 0 0 0 0 0 0 0 0 0 0 0 0 0 0 0 0 0 0 0 0 0 0
0 0 0 0 0 0 0 0 0 0 0 0 0 0 0 0 0 0 0 0 0 0 0 0 0 0 0 0 0 0 0 0 0 0 0 0 0 0 0 0 0 0 0 0 0 0 0 0 0 0 0 0 0 0 0 0 0 0 0 0 0 0 0 0 0 0 0 0 0 0 0 0 0 0 0 0 0 0 0 0 0 0 0 0 0 0 0 0 0 0 0 0 0
0 0 0 0 0 0 0 0 0 0 0 0 0 0 0 0 0 0 0 0 0 0 0 0 0 0 0 0 0 0 0 0 0 0 0 0 0 0 0 0 0 0 0 0 0 0 0 0 0 0 0 0 0 0 0 0 0 0 0 0 0 0 0 0 0 0 0 0 0 0 0 0 0 0 0 0 0 0 0 0 0 0 0 0 0 0 0 0 0 0 0 0 0
0 0 0 0 0 0 0 0 0 0 0 0 0 0 0 0 0 0 0 0 0 0 0 0 0 0 0 0 0 0 0 0 0 0 0 0 0 0 0 0 0 0 0 0 0 0 0 0 0 0 0 0 0 0 0 0 0 0 0 0 0 0 0 0 0 0 0 0 0 0 0 0 0 0 0 0 0 0 0 0 0 0 0 0 0 0 0 0 0 0 0 0 0
0 0 0 0 0 0 0 0 0 0 0 0 0 0 0 0 0 0 0 0 0 0 0 0 0 0 0 0 0 0 0 0 0 0 0 0 0 0 0 0 0 0 0 0 0 0 0 0 0 0 0 0 0 0 0 0 0 0 0 0 0 0 0 0 0 0 0 0 0 0 0 0 0 0 0 0 0 0 0 0 0 0 0 0 0 0 0 0 0 0 0 0 0
0 0 0 0 0 0 0 0 0 0 0 0 0 0 0 0 0 0 0 0 0 0 0 0 0 0 0 0 0 0 0 0 0 0 0 0 0 0 0 0 0 0 0 0 0 0 0 0 0 0 0 0 0 0 0 0 0 0 0 0 0 0 0 0 0 0 0 0 0 0 0 0 0 0 0 0 0 0 0 0 0 0 0 0 0 0 0 0 0 0 0 0 0
0 0 0 0 0 0 0 0 0 0 0 0 0 0 0 0 0 0 0 0 0 0 0 0 0 0 0 0 0 0 0 0 0 0 0 0 0 0 0 0 0 0 0 0 0 0 0 0 0 0 0 0 0 0 0 0 0 0 0 0 0 0 0 0 0 0 0 0 0 0 0 0 0 0 0 0 0 0 0 0 0 0 0 0 0 0 0 0 0 0 0 0 0
0 0 0 0 0 0 0 0 0 0 0 0 0 0 0 0 0 0 0 0 0 0 0 0 0 0 0 0 0 0 0 0 0 0 0 0 0 0 0 0 0 0 0 0 0 0 0 0 0 0 0 0 0 0 0 0 0 0 0 0 0 0 0 0 0 0 0 0 0 0 0 0 0 0 0 0 0 0 0 0 0 0 0 0 0 0 0 0 0 0 0 0 0
0 0 0 0 0 0 0 0 0 0 0 0 0 0 0 0 0 0 0 0 0 0 0 0 0 0 0 0 0 0 0 0 0 0 0 0 0 0 0 0 0 0 0 0 0 0 0 0 0 0 0 0 0 0 0 0 0 0 0 0 0 0 0 0 0 0 0 0 0 0 0 0 0 0 0 0 0 0 0 0 0 0 0 0 0 0 0 0 0 0 0 0 0
0 0 0 0 0 0 0 0 0 0 0 0 0 0 0 0 0 0 0 0 0 0 0 0 0 0 0 0 0 0 0 0 0 0 0 0 0 0 0 0 0 0 0 0 0 0 0 0 0 0 0 0 0 0 0 0 0 0 0 0 0 0 0 0 0 0 0 0 0 0 0 0 0 0 0 0 0 0 0 0 0 0 0 0 0 0 0 0 0 0 0 0 0
0 0 0 0 0 0 0 0 0 0 0 0 0 0 0 0 0 0 0 0 0 0 0 0 0 0 0 0 0 0 0 0 0 0 0 0 0 0 0 0 0 0 0 0 0 0 0 0 0 0 0 0 0 0 0 0 0 0 0 0 0 0 0 0 0 0 0 0 0 0 0 0 0 0 0 0 0 0 0 0 0 0 0 0 0 0 0 0 0 0 0 0 0
0 0 0 0 0 0 0 0 0 0 0 0 0 0 0 0 0 0 0 0 0 0 0 0 0 0 0 0 0 0 0 0 0 0 0 0 0 0 0 0 0 0 0 0 0 0 0 0 0 0 0 0 0 0 0 0 0 0 0 0 0 0 0 0 0 0 0 0 0 0 0 0 0 0 0 0 0 0 0 0 0 0 0 0 0 0 0 0 0 0 0 0 0
0 0 0 0 0 0 0 0 0 0 0 0 0 0 0 0 0 0 0 0 0 0 0 0 0 0 0 0 0 0 0 0 0 0 0 0 0 0 0 0 0 0 0 0 0 0 0 0 0 0 0 0 0 0 0 0 0 0 0 0 0 0 0 0 0 0 0 0 0 0 0 0 0 0 0 0 0 0 0 0 0 0 0 0 0 0 0 0 0 0 0 0 0
0 0 0 0 0 0 0 0 0 0 0 0 0 0 0 0 0 0 0 0 0 0 0 0 0 0 0 0 0 0 0 0 0 0 0 0 0 0 0 0 0 0 0 0 0 0 0 0 0 0 0 0 0 0 0 0 0 0 0 0 0 0 0 0 0 0 0 0 0 0 0 0 0 0 0 0 0 0 0 0 0 0 0 0 0 0 0 0 0 0 0 0 0
0 0 0 0 0 0 0 0 0 0 0 0 0 0 0 0 0 0 0 0 0 0 0 0 0 0 0 0 0 0 0 0 0 0 0 0 0 0 0 0 0 0 0 0 0 0 0 0 0 0 0 0 0 0 0 0 0 0 0 0 0 0 0 0 0 0 0 0 0 0 0 0 0 0 0 0 0 0 0 0 0 0 0 0 0 0 0 0 0 0 0 0 0
0 0 0 0 0 0 0 0 0 0 0 0 0 0 0 0 0 0 0 0 0 0 0 0 0 0 0 0 0 0 0 0 0 0 0 0 0 0 0 0 0 0 0 0 0 0 0 0 0 0 0 0 0 0 0 0 0 0 0 0 0 0 0 0 0 0 0 0 0 0 0 0 0 0 0 0 0 0 0 0 0 0 0 0 0 0 0 0 0 0 0 0 0
0 0 0 0 0 0 0 0 0 0 0 0 0 0 0 0 0 0 0 0 0 0 0 0 0 0 0 0 0 0 0 0 0 0 0 0 0 0 0 0 0 0 0 0 0 0 0 0 0 0 0 0 0 0 0 0 0 0 0 0 0 0 0 0 0 0 0 0 0 0 0 0 0 0 0 0 0 0 0 0 0 0 0 0 0 0 0 0 0 0 0 0 0
0 0 0 0 0 0 0 0 0 0 0 0 0 0 0 0 0 0 0 0 0 0 0 0 0 0 0 0 0 0 0 0 0 0 0 0 0 0 0 0 0 0 0 0 0 0 0 0 0 0 0 0 0 0 0 0 0 0 0 0 0 0 0 0 0 0 0 0 0 0 0 0 0 0 0 0 0 0 0 0 0 0 0 0 0 0 0 0 0 0 0 0 0
0 0 0 0 0 0 0 0 0 0 0 0 0 0 0 0 0 0 0 0 0 0 0 0 0 0 0 0 0 0 0 0 0 0 0 0 0 0 0 0 0 0 0 0 0 0 0 0 0 0 0 0 0 0 0 0 0 0 0 0 0 0 0 0 0 0 0 0 0 0 0 0 0 0 0 0 0 0 0 0 0 0 0 0 0 0 0 0 0 0 0 0 0
0 0 0 0 0 0 0 0 0 0 0 0 0 0 0 0 0 0 0 0 0 0 0 0 0 0 0 0 0 0 0 0 0 0 0 0 0 0 0 0 0 0 0 0 0 0 0 0 0 0 0 0 0 0 0 0 0 0 0 0 0 0 0 0 0 0 0 0 0 0 0 0 0 0 0 0 0 0 0 0 0 0 0 0 0 0 0 0 0 0 0 0 0
0 0 0 0 0 0 0 0 0 0 0 0 0 0 0 0 0 0 0 0 0 0 0 0 0 0 0 0 0 0 0 0 0 0 0 0 0 0 0 0 0 0 0 0 0 0 0 0 0 0 0 0 0 0 0 0 0 0 0 0 0 0 0 0 0 0 0.24 0.24 0.24 0.27 0.27 0 0 0 0 0 0 0 0 0 0 0 0 0 0 0 0 0 0 0 0 0 0
0 0 0 0 0 0 0 0 0 0 0 0 0 0 0 0 0 0 0 0 0 0 0 0 0 0 0 0 0 0 0 0 0 0 0 0 0 0 0 0.09 0.09 0 0 0 0 0 0 0 0 0 0 0 0 0 0.21 0.21 0.4 0 0 0.29 0 0 0 0 0 0 0.25 0.24 0.24 0.57 0.27 0.27 0 0 0 0 0 0 0 0 0 0 0 0 0 0 0 0 0 0 0 0 0
0 0 0 0 0 0 0 0 0 0 0 0 0 0 0 0 0 0 0 0 0 0 0 0 0 0 0 0 0 0 0 0 0 0 0 0 0 0.09 0.12 0.21 0.09 0 0 0 0 0 0 0.05 0.05 0.1 0.12 0.12 0.12 0.12 0.12 0.21 0.35 0.12 0.29 0.24 0.32 0.32 0.12 0.07 0.09 0.25 0.3 0.25 0.49 0.57 0.57 0.27 0.27 0 0 0 0 0 0 0 0 0 0 0 0 0 0 0 0 0 0 0 0
0 0 0 0 0 0 0 0 0 0 0 0 0 0 0 0 0 0 0 0 0 0 0 0 0 0 0 0 0 0 0 0 0 0 0 0 0.09 0.12 0.33 0.55 0.21 0.2 0.39 0 0 0.06 0.06 0.12 0.05 0.12 0.12 0.12 0.12 0.12 0.12 0.12 0.12 0.12 0.11 0.2 0.23 0.12 0.07 0.07 0.4 0.09 0.25 0.49 0.49 0.57 0.57 0.57 0.27 0.27 0 0 0 0 0 0 0 0 0 0 0 0 0 0 0 0 0 0 0
0 0 0 0 0 0 0 0 0 0 0 0 0 0 0 0 0 0 0 0 0 0 0 0 0 0 0 0 0 0 0 0 0 0 0.18 0.24 0.2 0.21 0.28 0.39 0.2 0.39 3.72 0.09 0 0 0.06 0.19 0.19 0.12 0.12 0.12 0.12 0.12 0.12 0.12 0.12 0.11 0.11 1.12 0.63 0.23 0.55 0.4 0.39 0.27 0.52 1.4 2.34 2.34 1.23 1.23 4.85 0.19 0.19 0.19 0.15 0.15 0 0 0 0 0 0 0 0 0 0 0 0 0 0 0
0 0 0 0 0 0 0 0 0 0 0 0 0 0 0 0 0 0 0 0 0 0 0 0 0 0 0 0 0 0 0 0.29 0 0.18 0.12 0.21 0.23 0.2 0.28 0.41 1.12 1.12 0.09 0.09 0.3 0 0.09 0.44 0.14 1.2 1.2 1.2 0.29 1.2 1.2 1.2 1.12 1.12 0.62 1.91 1.12 0.39 1.91 0.39 0.39 0.37 0.37 4.17 11.23 2.34 2.34 0.23 0.19 0.19 0.19 0.19 0.32 0.32 0.32 0 0 0 0 0 0 0 0 0 0 0 0 0 0
0 0 0 0 0 0 0 0 0 0 0 0 0 0 0 0 0 0 0 0 0 0 0 0 0 0 0 0 0 0.29 0.29 0.24 0.4 0.12 0.4 0.21 0.2 0.29 0.29 1.94 1.12 1.12 0.09 0.34 0.29 0.29 0 0.14 0.14 1.04 1.04 0.32 0.39 1.2 1.2 1.2 1.2 1.2 1.2 1.12 1.12 0.62 3.72 1.91 1.12 1.12 0.37 0.37 0.37 0.12 0.1 0.21 0.23 0.23 0.4 0.52 0.34 0.34 0.32 0.15 0.86 0 0 0 0 0 0 0 0 0 0 0 0
0 0 0 0 0 0 0 0 0 0 0 0 0 0 0 0 0 0 0 0 0 0 0 0 0 0 0 0 0 0.62 0.25 0.21 0.45 0.4 0.12 0.12 0.21 0.29 0.92 0.32 1.2 1.2 1.2 0.23 0.23 0.26 1.73 0 0.63 0.98 0.98 1.7 1.04 0.39 0.39 1.2 1.2 1.2 1.94 1.2 1.2 1.12 0.62 0.32 1.12 1.12 1.11 1.11 0.12 0.1 1.11 1.11 0.21 0.39 0.37 1.22 0.34 0.4 0.32 2.67 2.67 0.86 0 0 0 0 0 0 0 0 0 0 0
0 0 0 0 0 0 0 0 0 0 0 0 0 0 0 0 0 0 0 0 0 0 0 0 0 0 0 0.21 0.21 0.25 0.23 0.25 0.4 1.23 0.2 0.15 0.21 0.32 0.32 0.32 0.39 0.39 0.13 0.18 0.37 0.26 0.26 0 0 1.04 3.63 0.98 3.63 3.63 4.46 1.2 1.2 3.8 1.94 0.2 0.28 1.2 0.29 1.94 0.62 1.29 1.29 0.88 1.94 1.11 1.11 1.12 0.62 1.12 1.12 0.37 0.37 0.37 2.34 2.34 2.67 0.86 0 0 0 0 0 0 0 0 0 0 0
0 0 0 0 0 0 0 0 0 0 0 0 0 0 0 0 0 0 0 0 0 0 0 0 0 0 0 0.29 0.21 0.21 0.25 0.23 0.63 0.63 0.15 0.28 0.09 0.2 0.2 3.63 0.18 0.13 0.18 0.37 0.39 1.22 0.33 16.51 0 0 0.98 3.43 0.63 1.04 1.04 0.39 0.39 0.61 0.2 0.23 0.2 1.21 0.61 3.8 1.2 1.2 0.61 0.92 1.29 1.2 1.12 1.12 3.72 1.12 1.12 1.11 0.37 0.37 0.3 0.3 2.34 2.67 0.86 0 0 0 0 0 0 0 0 0 0
0 0 0 0 0 0 0 0 0 0 0 0 0 0 0 0 0 0 0 0 0 0 0 0 0 0 0 0.81 0.4 0.45 0.33 0.23 0.19 0.19 0.19 0.09 0.21 0.2 1.22 0.18 0.37 0.37 0.63 0.55 0.39 1.22 3.49 11.61 1.22 0 0 0.63 0.18 3.49 1.04 1.04 0.13 1.04 1.04 0.2 0.6 0.38 1.21 0.92 0.61 1.2 0.92 0.92 0.92 1.2 1.2 1.12 1.12 1.12 1.12 1.11 1.11 0.37 0.37 0.3 0.3 2.67 2.67 0.86 0 0 0 0 0 0 0 0 0
0 0 0 0 0 0 0 0 0 0 0 0 0 0 0 0 0 0 0 0 0 0 0 0 0 0 0 0.81 0.12 0.21 0.12 0.19 0.19 0.19 0.2 0.09 1.22 0.21 0.63 0.37 0.37 1.22 11.61 0.55 1.22 3.49 3.49 1.22 3.49 3.49 0 0.14 0.37 0.37 0.37 0.98 0.63 0.63 0.63 0.63 1.7 1.7 0.38 0.57 0.57 0.39 1.2 1.2 1.2 1.2 1.2 1.2 1.12 1.12 1.12 1.11 1.11 1.11 0.37 0.37 0.3 2.34 2.67 2.67 0 0 0 0 0 0 0 0 0
0 0 0 0 0 0 0 0 0 0 0 0 0 0 0 0 0 0 0 0 0 0 0 0 0 0 0 0.12 0.11 0.2 0.21 0.21 0.15 0.29 1.22 0.21 0.63 0.37 0.37 0.63 3.49 0.37 0.37 0.55 11.61 3.49 3.49 3.49 0.37 3.49 1.73 0 16.51 3.49 11.61 1.04 3.43 3.63 1.04 3.63 3.63 3.63 4.46 1.8 4.46 4.46 1.2 1.2 1.2 1.13 1.13 1.94 3.72 1.12 5.29 5.29 1.04 0.88 1.04 3.45 3.45 2.34 2.34 2.67 0.86 0 0 0 0 0 0 0 0
0 0 0 0 0 0 0 0 0 0 0 0 0 0 0 0 0 0 0 0 0 0 0 0 0 0 0 0.18 0.12 0.2 0.21 0.23 0.2 0.21 0.37 0.37 0.37 0.35 0.39 2.96 0.37 1.23 2.96 0.37 0.37 0.37 0.37 0.37 1.22 3.49 3.49 3.49 0 16.51 16.51 4.55 3.63 3.43 1.7 3.63 1.7 1.7 3.43 4.46 20.55 4.46 4.46 1.2 1.94 1.2 1.2 1.94 1.94 0.88 1.12 1.12 0.88 1.12 3.72 0.62 3.45 3.45 2.34 2.67 2.67 0.86 0 0 0 0 0 0 0
0 0 0 0 0 0 0 0 0 0 0 0 0 0 0 0 0 0 0 0 0 0 0 0 0 0 0.94 0.18 0.11 0.2 0.2 0.3 0.37 0.37 0.37 0.35 0.35 0.35 0.35 0.35 2.96 1.23 2.96 2.96 2.96 2.96 3.49 3.49 3.49 3.49 3.49 3.49 0 0 16.51 1.04 1.04 3.63 0.21 0.63 1.7 1.04 1.04 1.04 1.04 0.38 0.39 4.46 3.8 1.2 1.2 1.94 1.94 1.2 1.12 1.91 0.88 1.12 0.62 1.11 0.37 0.37 3.45 2.34 2.67 2.67 0.86 0 0 0 0 0 0
0 0 0 0 0 0 0 0 0 0 0 0 0 0 0 0 0 0 0 0 0 0 0 0 0 0 0.18 0.18 0.11 0.21 0.2 0.2 0.21 0.2 0.23 0.24 1.22 1.22 3.49 3.49 3.49 2.96 2.96 2.96 2.96 2.96 2.96 3.49 3.49 3.49 3.49 3.49 3.49 0 0 1.73 0.23 0.63 0.29 0.21 1.7 0.98 0.94 3.63 1.04 4.46 4.46 4.46 3.8 3.8 1.13 1.94 1.94 1.94 3.72 1.91 1.91 1.91 1.91 1.12 1.12 0.39 0.37 0.37 2.34 2.67 2.67 0 0 0 0 0 0
0 0 0 0 0 0 0 0 0 0 0 0 0 0 0 0 0 0 0 0 0 0 0 0 0 0 0.18 0.18 0.07 0.2 0.29 0.29 0.29 0.2 0.2 0.39 0.63 0.63 0.63 3.49 3.49 3.49 3.49 2.96 2.96 2.96 2.96 2.96 2.96 3.49 3.49 3.49 3.49 3.49 0 0 1.22 0.23 11.61 3.49 3.49 0.94 0.98 3.63 4.46 4.46 4.46 4.46 4.46 1.2 1.2 1.2 3.8 1.2 1.12 1.12 1.91 0.41 1.91 1.91 1.12 1.22 0.37 0.37 0.3 2.34 2.67 0.86 0 0 0 0 0
0 0 0 0 0 0 0 0 0 0 0 0 0 0 0 0 0 0 0 0 0 0 0 0 0 0 0.18 0.12 0.12 0.19 0.29 0.29 0.23 0.24 0.28 0.28 0.33 16.51 16.51 11.61 3.49 3.49 3.49 2.96 2.96 2.96 2.96 2.96 2.96 3.49 3.49 11.61 3.49 3.49 3.49 0 0.55 16.51 1.22 3.45 3.45 0.94 0.94 3.63 0.39 4.46 13.76 4.46 4.46 0.61 1.2 1.2 1.2 1.2 1.2 1.2 1.12 0.88 1.91 1.91 1.12 1.12 3.45 0.39 0.3 0.3 2.67 2.67 0.86 0 0 0 0
0 0 0 0 0 0 0 0 0 0 0 0 0 0 0 0 0 0 0 0 0 0 0 0 0 0 0.12 0.12 0.19 0.19 0.39 0.62 0.2 0.2 0.2 0.3 0.63 1.22 5.96 1.22 11.61 3.49 3.49 2.96 2.96 2.96 2.96 10.4 2.96 3.49 3.49 3.49 3.49 3.49 3.49 0.63 0 16.51 5.96 3.45 3.45 0.94 0.94 0.94 0.39 4.46 4.46 4.46 4.46 4.46 1.2 1.2 1.2 1.2 1.2 1.2 1.12 1.12 5.29 5.29 1.91 1.91 0.55 1.22 3.45 3.45 0.32 2.67 2.67 0.86 0 0 0
0 0 0 0 0 0 0 0 0 0 0 0 0 0 0 0 0 0 0 0 0 0 0 0 0 0 0.18 0.2 0.21 0.2 0.2 0.39 0.23 0.23 0.3 0.24 1.22 0.37 0.37 0.35 0.35 0.35 0.35 0.35 0.35 0.35 0.37 0.37 0.37 0.37 0.37 0.37 0.37 0.37 0.37 0.63 0.55 0 0.88 0.88 0.88 0.94 0.98 0.98 1.7 4.46 0.39 4.46 4.46 4.46 4.46 1.2 1.2 1.94 1.2 1.2 1.91 1.91 1.91 3.72 1.91 5.29 1.73 3.49 3.45 3.45 2.34 0.32 2.67 2.67 0 0 0
0 0 0 0 0 0 0 0 0 0 0 0 0 0 0 0 0 0 0 0 0 0 0 0 0 0.18 0.12 0.21 0.2 0.21 0.19 0.39 0.18 0.37 0.37 0.35 0.35 0.35 0.37 0.35 0.35 0.37 0.37 0.37 0.37 0.37 0.37 0.37 0.37 0.37 0.37 0.37 0.37 0.39 3.49 1.22 0.63 0 0 0.88 0.88 0.98 1.04 0.98 4.46 0.39 4.46 4.46 4.46 4.46 4.46 1.2 1.2 1.2 1.2 1.2 1.12 1.91 1.91 1.91 3.5 5.29 5.96 5.96 3.45 3.45 3.45 2.34 0.32 0.32 0 0 0
0 0 0 0 0 0 0 0 0 0 0 0 0 0 0 0 0 0 0 0 0 0 0 0 0 0.12 0.12 0.37 0.28 0.28 0.2 0.2 0.18 0.29 0.29 0.23 0.23 1.23 2.96 2.96 0.37 0.37 0.63 0.37 0.37 0.37 0.39 3.49 3.49 3.49 3.49 3.49 3.49 0.39 0.39 1.22 1.6 0.98 0 0 0.88 0.88 0.98 1.04 4.46 13.76 4.46 4.46 4.46 4.46 4.46 1.2 1.2 1.2 1.2 1.2 1.12 1.12 1.91 1.91 1.91 1.12 1.73 1.73 3.45 3.45 3.45 2.34 2.34 2.34 0 0 0
0 0 0 0 0 0 0 0 0 0 0 0 0 0 0 0 0 0 0 0 0 0 0 0 0 0.94 0.18 0.34 0.28 0.6 0.28 0.28 0.23 0.29 0.23 0.23 0.23 0.37 0.37 0.37 0.37 0.37 0.63 0.37 0.37 0.37 0.37 0.37 0.37 0.37 0.37 0.39 3.49 3.43 0.98 0.98 0.98 0.98 0.88 0 0 4.94 4.46 4.46 4.46 4.46 4.46 4.46 4.46 4.46 4.46 1.21 1.21 1.13 1.13 1.13 1.05 1.05 1.05 1.91 1.05 1.05 1.91 0.63 1.22 3.45 3.45 3.45 2.34 0 0 0 0
0 0 0 0 0 0 0 0 0 0 0 0 0 0 0 0 0 0 0 0 0 0 0 0 0 0.94 0.18 0.21 0.23 0.23 0.2 0.2 0.38 0.62 3.43 0.29 0.37 0.37 0.37 0.39 3.49 3.49 1.22 1.22 3.49 0.37 3.49 0.98 0.98 0.98 0.98 0.98 1.6 0.98 3.63 0.98 0.98 0.88 0.88 0.88 0 0 0.39 4.46 13.76 4.46 4.46 4.46 4.46 4.46 1.2 1.2 1.2 1.2 1.2 1.2 1.91 1.12 1.12 1.12 1.12 1.91 0.88 5.96 0.63 0.63 3.45 0 0 0 0 0 0
0 0 0 0 0 0 0 0 0 0 0 0 0 0 0 0 0 0 0 0 0 0 0 0 0 0.18 0.35 0.23 0.21 0.31 0.15 0.6 0.39 4.46 0.39 0.98 0.98 0.98 0.37 0.37 0.37 0.37 0.37 0.98 0.98 0.98 0.98 0.98 0.98 0.62 0.98 0.98 0.98 0.62 0.98 1.04 0.88 0.88 0.88 4.94 4.94 0 4.46 0.39 0.38 4.46 4.46 13.76 4.46 4.46 4.46 1.2 1.2 1.2 1.2 1.2 1.2 1.12 1.12 1.91 1.12 0.88 1.91 5.96 1.22 5.96 0 0 0 0 0 0 0
0 0 0 0 0 0 0 0 0 0 0 0 0 0 0 0 0 0 0 0 0 0 0 0 0.29 0.29 0.21 0.39 0.39 0.15 0.21 0.6 0.28 4.46 1.21 1.21 0.98 0.98 0.98 0.98 0.98 0.98 0.98 3.63 0.98 0.98 0.98 0.98 0.98 0.98 0.98 0.98 0.98 1.6 0.29 0.98 0.94 4.94 4.94 4.94 4.94 4.94 0 4.46 0.39 4.46 4.46 4.46 4.46 4.46 4.46 4.46 1.2 1.2 1.2 1.2 3.8 1.91 1.05 1.05 3.72 3.72 5.29 1.73 1.73 0 0 0 0 0 0 0 0
0 0 0 0 0 0 0 0 0 0 0 0 0 0 0 0 0 0 0 0 0 0 0 0 0.94 0.27 0.2 0.21 1.22 0.39 0.61 0.19 4.46 13.76 0.6 0.6 6.84 4.46 0.98 0.98 0.98 0.98 0.98 0.98 0.98 0.98 0.98 0.98 0.98 1.7 3.43 0.62 1.7 6.84 0.98 1.04 1.04 4.94 4.94 4.94 4.94 4.94 4.94 0 1.13 0.19 4.46 4.46 4.46 4.46 1.13 0.6 1.13 3.8 1.2 1.2 1.2 1.12 1.12 1.12 1.05 3.72 5.29 4.98 0 0 0 0 0 0 0 0 0
0 0 0 0 0 0 0 0 0 0 0 0 0 0 0 0 0 0 0 0 0 0 0 0 0.27 0.94 0.35 0.52 0.39 1.22 0.39 0.19 0.21 1.82 13.76 0.28 4.46 1.21 4.46 1.21 3.43 1.6 0.98 0.98 0.98 0.98 3.63 0.98 4.46 4.46 1.21 6.84 1.21 1.8 4.46 4.94 1.7 4.94 4.94 4.94 4.94 4.94 4.94 0 0 1.21 0.19 4.46 4.46 4.46 1.2 1.2 1.2 1.13 1.13 1.13 1.05 3.72 1.05 0.62 5.29 5.29 5.29 5.29 0 0 0 0 0 0 0 0 0
0 0 0 0 0 0 0 0 0 0 0 0 0 0 0 0 0 0 0 0 0 0 0 0 0 0.94 0.35 0.52 4.17 0.39 0.39 0.28 0.2 3.56 0.28 0.28 6.84 0.6 13.76 13.76 1.21 13.76 4.46 4.46 4.46 4.46 4.46 4.46 4.46 4.46 13.76 6.84 20.55 4.46 4.46 4.94 4.94 4.94 4.94 4.94 4.94 4.94 4.94 4.94 0 0 0.19 0.21 1.13 1.13 1.2 1.13 1.13 1.2 1.05 1.05 1.05 1.05 1.12 1.05 0.86 1.05 4.98 0 0 0 0 0 0 0 0 0 0
0 0 0 0 0 0 0 0 0 0 0 0 0 0 0 0 0 0 0 0 0 0 0 0 0 0.94 0.24 0.24 4.17 0.34 0.17 0.2 0.23 1.8 0.31 0.31 13.76 6.84 1.21 0.39 13.76 6.84 13.76 4.46 4.46 4.46 4.46 4.46 4.46 4.46 13.76 13.76 1.8 4.46 4.46 4.46 4.94 4.94 4.94 4.46 4.46 4.94 4.94 4.94 4.94 0 0 0.21 1.21 1.21 1.13 1.2 1.94 1.13 1.12 1.05 1.05 1.05 1.05 1.12 3.49 1.12 1.05 0 0 0 0 0 0 0 0 0 0
0 0 0 0 0 0 0 0 0 0 0 0 0 0 0 0 0 0 0 0 0 0 0 0 0 0.94 0.35 0.35 9.86 0.52 0.34 0.63 0.63 3.5 0.31 0.31 1.13 3.56 1.21 0.39 0.28 13.76 4.46 13.76 4.46 4.46 4.46 4.46 4.46 4.46 4.46 13.76 0.6 1.8 4.46 4.46 4.94 4.94 4.94 4.46 4.46 4.94 4.94 4.94 4.94 4.94 0 1.29 1.29 1.21 1.21 1.21 1.13 1.05 1.05 1.05 1.05 1.05 1.05 3.49 0.37 3.49 1.05 0 0 0 0 0 0 0 0 0 0
0 0 0 0 0 0 0 0 0 0 0 0 0 0 0 0 0 0 0 0 0 0 0 0 0 0 0.94 0.35 2.96 0.52 0.34 0.63 0.39 5.96 0.39 0.31 0.28 3.56 1.82 1.13 4.46 4.46 4.46 1.21 13.76 4.46 4.46 4.46 4.46 4.46 6.84 4.46 13.76 4.46 4.46 4.46 4.94 4.94 4.94 4.46 4.46 4.94 4.94 4.94 1.21 1.21 0.32 0 1.21 1.21 1.04 1.04 1.04 1.05 1.05 1.05 1.05 1.05 3.49 1.22 3.49 3.49 0 0 0 0 0 0 0 0 0 0 0
0 0 0 0 0 0 0 0 0 0 0 0 0 0 0 0 0 0 0 0 0 0 0 0 0 0 0.94 0.94 2.96 2.96 0.35 0.34 0.17 0.63 0.39 0.63 0.6 0.28 1.13 1.13 1.13 4.46 0.28 13.76 6.84 13.76 4.46 4.46 4.46 13.76 4.46 6.84 4.46 4.46 1.21 4.46 4.46 4.46 4.46 4.94 4.46 4.94 4.94 1.29 1.29 1.21 1.82 0.92 0 1.04 1.04 1.04 1.04 1.8 1.91 1.91 3.72 1.11 3.45 11.61 3.45 3.49 0 0 0 0 0 0 0 0 0 0 0
0 0 0 0 0 0 0 0 0 0 0 0 0 0 0 0 0 0 0 0 0 0 0 0 0 0 0.94 0.94 0.94 0.62 0.35 0.17 0.17 0.39 0.37 3.49 1.05 1.05 1.04 1.04 1.21 1.13 1.13 1.13 1.13 6.84 6.84 6.84 4.46 4.46 13.76 4.46 4.46 1.21 1.21 4.46 4.46 3.56 4.46 1.2 1.2 1.21 4.94 1.29 3.8 3.8 1.82 5.32 0 0 1.04 1.04 5.29 1.8 0.86 1.91 5.29 3.72 1.22 3.45 11.61 3.45 0 0 0 0 0 0 0 0 0 0 0
0 0 0 0 0 0 0 0 0 0 0 0 0 0 0 0 0 0 0 0 0 0 0 0 0 0 0.94 0.94 0.94 0.94 0.94 0.17 0.19 2.73 0.3 3.45 3.45 3.45 1.04 1.04 1.04 1.04 1.04 1.13 1.13 1.82 0.6 1.13 1.13 3.56 3.56 3.56 1.13 1.13 3.8 3.8 1.13 3.8 3.56 0.6 3.8 3.56 1.21 1.21 1.21 1.21 1.21 5.32 5.32 0 0 1.04 1.04 0.86 4.98 0.86 1.91 5.29 1.73 11.61 0 0 0 0 0 0 0 0 0 0 0 0 0
0 0 0 0 0 0 0 0 0 0 0 0 0 0 0 0 0 0 0 0 0 0 0 0 0 0 0 0.94 0.94 0.62 0.94 0.35 0.34 2.34 2.34 3.45 3.45 3.45 3.45 3.45 1.04 1.04 1.04 1.05 1.05 1.13 1.82 1.13 3.56 3.56 1.13 1.13 1.13 1.13 3.56 1.13 3.56 3.56 3.8 1.82 0.6 1.94 1.2 1.2 1.21 1.21 1.21 3.56 5.32 5.32 0 0 3.45 0.55 0.55 3.45 1.22 1.91 4.98 0 0 0 0 0 0 0 0 0 0 0 0 0 0
0 0 0 0 0 0 0 0 0 0 0 0 0 0 0 0 0 0 0 0 0 0 0 0 0 0 0 0 0.62 1 0.94 0.94 0.35 2.34 2.34 2.34 2.34 3.45 3.45 3.45 3.45 3.45 3.45 1.05 1.05 1.05 1.8 1.13 0.6 1.82 1.13 1.13 1.13 1.13 3.56 3.56 1.82 1.13 1.82 3.8 0.6 1.13 3.8 1.2 1.2 1.21 1.04 1.05 0.86 1.04 1.04 0 3.45 0.63 3.45 4.98 1.22 0 0 0 0 0 0 0 0 0 0 0 0 0 0 0 0
0 0 0 0 0 0 0 0 0 0 0 0 0 0 0 0 0 0 0 0 0 0 0 0 0 0 0 0 0 0.94 1 0.94 0.35 2.67 2.34 2.34 2.34 2.34 3.45 3.45 3.45 3.45 3.45 16.51 5.96 11.61 0.63 1.05 0.61 1.82 3.8 1.13 3.56 1.05 3.56 1.82 3.56 3.8 3.56 3.56 3.8 3.56 3.56 1.13 1.05 1.05 1.05 3.72 1.05 1.04 1.04 0.12 0 0.63 1.22 3.45 0 0 0 0 0 0 0 0 0 0 0 0 0 0 0 0 0
0 0 0 0 0 0 0 0 0 0 0 0 0 0 0 0 0 0 0 0 0 0 0 0 0 0 0 0 0 0 0 0.94 0.94 0.81 2.67 2.67 2.34 2.34 2.34 0.4 2.34 3.45 3.45 0.55 3.49 3.49 0.63 0.39 3.5 1.8 1.05 1.05 1.05 1.05 3.5 3.5 1.05 1.82 1.05 1.05 1.05 1.13 1.05 1.05 1.05 3.72 3.5 1.8 1.04 1.04 1.04 1.04 0 0 1.22 0 0 0 0 0 0 0 0 0 0 0 0 0 0 0 0 0 0
0 0 0 0 0 0 0 0 0 0 0 0 0 0 0 0 0 0 0 0 0 0 0 0 0 0 0 0 0 0 0 0 0.94 0.94 0.81 2.67 2.67 2.67 2.34 2.34 2.34 2.34 0.55 0.39 5.96 3.49 3.49 0.37 3.49 3.5 0.39 1.05 1.05 1.8 1.05 1.8 1.05 1.05 1.05 1.05 3.5 1.05 1.05 1.05 1.05 1.05 1.91 1.8 3.72 1.11 1.04 1.11 1.04 0 0 0 0 0 0 0 0 0 0 0 0 0 0 0 0 0 0 0 0
0 0 0 0 0 0 0 0 0 0 0 0 0 0 0 0 0 0 0 0 0 0 0 0 0 0 0 0 0 0 0 0 0.94 0.94 0.94 0.81 0.81 2.67 2.67 2.34 2.34 4.17 2.34 0.34 3.49 3.49 3.49 3.49 3.49 3.49 0.61 0.39 3.5 3.5 5.29 3.5 1.05 3.72 3.5 0.61 1.05 1.05 1.05 1.05 1.05 0.61 4.98 1.91 3.5 1.04 1.11 1.11 0 0 0 0 0 0 0 0 0 0 0 0 0 0 0 0 0 0 0 0 0
0 0 0 0 0 0 0 0 0 0 0 0 0 0 0 0 0 0 0 0 0 0 0 0 0 0 0 0 0 0 0 0 0 0.94 0.94 0.81 0.81 0.81 2.67 2.67 0.57 0.57 2.73 2.73 3.49 3.49 3.49 3.49 3.49 3.49 1.22 3.49 0.39 4.98 4.98 5.29 3.5 4.98 0.86 3.5 0.61 1.12 1.12 3.5 3.72 4.98 1.05 1.8 1.91 3.72 1.04 0 0 0 0 0 0 0 0 0 0 0 0 0 0 0 0 0 0 0 0 0 0
0 0 0 0 0 0 0 0 0 0 0 0 0 0 0 0 0 0 0 0 0 0 0 0 0 0 0 0 0 0 0 0 0 0 0 0.81 0.81 0.81 0.81 0.81 2.67 2.67 2.73 2.73 2.73 2.73 2.73 2.73 2.73 3.49 0.37 0.39 1.22 0.55 4.98 4.98 5.29 16.51 16.51 1.22 5.96 1.91 1.12 5.96 16.51 1.22 11.61 1.05 1.8 0 0 0 0 0 0 0 0 0 0 0 0 0 0 0 0 0 0 0 0 0 0 0 0
0 0 0 0 0 0 0 0 0 0 0 0 0 0 0 0 0 0 0 0 0 0 0 0 0 0 0 0 0 0 0 0 0 0 0 0 0.81 1.44 0.81 0.81 0.81 2.96 2.96 2.96 2.73 2.73 2.73 2.73 2.73 2.73 2.73 3.49 3.49 3.49 1.22 16.51 11.61 1.22 5.96 11.61 3.49 5.96 1.22 1.22 16.51 16.51 3.5 11.61 0 0 0 0 0 0 0 0 0 0 0 0 0 0 0 0 0 0 0 0 0 0 0 0 0
0 0 0 0 0 0 0 0 0 0 0 0 0 0 0 0 0 0 0 0 0 0 0 0 0 0 0 0 0 0 0 0 0 0 0 0 0 1.44 0.81 0.81 0.81 0.94 0.94 2.96 2.96 2.96 2.73 2.73 2.34 2.73 2.73 2.73 3.49 0.4 0.63 3.49 5.96 3.49 3.49 5.96 11.61 3.49 1.22 1.73 1.73 16.51 16.51 0 0 0 0 0 0 0 0 0 0 0 0 0 0 0 0 0 0 0 0 0 0 0 0 0 0
0 0 0 0 0 0 0 0 0 0 0 0 0 0 0 0 0 0 0 0 0 0 0 0 0 0 0 0 0 0 0 0 0 0 0 0 0 0 0 0.81 0.81 0.81 0.81 0.94 0.94 2.96 2.96 2.73 2.73 2.73 2.73 2.73 2.73 0.34 0.4 3.49 3.49 11.61 3.49 3.49 3.49 11.61 1.22 1.73 16.51 16.51 0 0 0 0 0 0 0 0 0 0 0 0 0 0 0 0 0 0 0 0 0 0 0 0 0 0 0
0 0 0 0 0 0 0 0 0 0 0 0 0 0 0 0 0 0 0 0 0 0 0 0 0 0 0 0 0 0 0 0 0 0 0 0 0 0 0 0 0 0.81 0.81 0.94 0.94 0.94 2.96 2.96 2.96 2.73 2.73 2.73 9.86 2.73 2.73 3.49 3.49 3.49 3.49 11.61 1.22 11.61 1.22 11.61 0 0 0 0 0 0 0 0 0 0 0 0 0 0 0 0 0 0 0 0 0 0 0 0 0 0 0 0 0
0 0 0 0 0 0 0 0 0 0 0 0 0 0 0 0 0 0 0 0 0 0 0 0 0 0 0 0 0 0 0 0 0 0 0 0 0 0 0 0 0 0 0.81 0.94 0.94 0.94 0.94 0.94 2.96 2.96 2.73 2.73 2.73 2.73 2.73 2.73 2.73 3.49 3.49 11.61 11.61 11.61 11.61 0 0 0 0 0 0 0 0 0 0 0 0 0 0 0 0 0 0 0 0 0 0 0 0 0 0 0 0 0 0
0 0 0 0 0 0 0 0 0 0 0 0 0 0 0 0 0 0 0 0 0 0 0 0 0 0 0 0 0 0 0 0 0 0 0 0 0 0 0 0 0 0 0 0 0.94 0.94 0.94 0.94 0.94 2.96 2.96 2.96 2.96 2.96 2.73 2.73 0.4 1.23 0.4 3.49 11.61 0 0 0 0 0 0 0 0 0 0 0 0 0 0 0 0 0 0 0 0 0 0 0 0 0 0 0 0 0 0 0 0
0 0 0 0 0 0 0 0 0 0 0 0 0 0 0 0 0 0 0 0 0 0 0 0 0 0 0 0 0 0 0 0 0 0 0 0 0 0 0 0 0 0 0 0 0 0 0.94 0.94 0.94 1 0.94 2.96 2.96 2.96 2.96 0.4 0.34 0.4 1.23 9.86 0 0 0 0 0 0 0 0 0 0 0 0 0 0 0 0 0 0 0 0 0 0 0 0 0 0 0 0 0 0 0 0 0
0 0 0 0 0 0 0 0 0 0 0 0 0 0 0 0 0 0 0 0 0 0 0 0 0 0 0 0 0 0 0 0 0 0 0 0 0 0 0 0 0 0 0 0 0 0 0 0.94 0.81 0.86 0.94 0.94 0.94 2.96 2.96 10.4 0.35 2.73 0 0 0 0 0 0 0 0 0 0 0 0 0 0 0 0 0 0 0 0 0 0 0 0 0 0 0 0 0 0 0 0 0 0 0
0 0 0 0 0 0 0 0 0 0 0 0 0 0 0 0 0 0 0 0 0 0 0 0 0 0 0 0 0 0 0 0 0 0 0 0 0 0 0 0 0 0 0 0 0 0 0 0 0.81 0.81 0.94 0.94 0.94 0.94 2.96 2.96 0.35 0 0 0 0 0 0 0 0 0 0 0 0 0 0 0 0 0 0 0 0 0 0 0 0 0 0 0 0 0 0 0 0 0 0 0 0
0 0 0 0 0 0 0 0 0 0 0 0 0 0 0 0 0 0 0 0 0 0 0 0 0 0 0 0 0 0 0 0 0 0 0 0 0 0 0 0 0 0 0 0 0 0 0 0 0 0 0 0.94 0.94 0.94 2.96 0 0 0 0 0 0 0 0 0 0 0 0 0 0 0 0 0 0 0 0 0 0 0 0 0 0 0 0 0 0 0 0 0 0 0 0 0 0
0 0 0 0 0 0 0 0 0 0 0 0 0 0 0 0 0 0 0 0 0 0 0 0 0 0 0 0 0 0 0 0 0 0 0 0 0 0 0 0 0 0 0 0 0 0 0 0 0 0 0 0 0.94 0.94 0 0 0 0 0 0 0 0 0 0 0 0 0 0 0 0 0 0 0 0 0 0 0 0 0 0 0 0 0 0 0 0 0 0 0 0 0 0 0
0 0 0 0 0 0 0 0 0 0 0 0 0 0 0 0 0 0 0 0 0 0 0 0 0 0 0 0 0 0 0 0 0 0 0 0 0 0 0 0 0 0 0 0 0 0 0 0 0 0 0 0 0 0 0 0 0 0 0 0 0 0 0 0 0 0 0 0 0 0 0 0 0 0 0 0 0 0 0 0 0 0 0 0 0 0 0 0 0 0 0 0 0
0 0 0 0 0 0 0 0 0 0 0 0 0 0 0 0 0 0 0 0 0 0 0 0 0 0 0 0 0 0 0 0 0 0 0 0 0 0 0 0 0 0 0 0 0 0 0 0 0 0 0 0 0 0 0 0 0 0 0 0 0 0 0 0 0 0 0 0 0 0 0 0 0 0 0 0 0 0 0 0 0 0 0 0 0 0 0 0 0 0 0 0 0
0 0 0 0 0 0 0 0 0 0 0 0 0 0 0 0 0 0 0 0 0 0 0 0 0 0 0 0 0 0 0 0 0 0 0 0 0 0 0 0 0 0 0 0 0 0 0 0 0 0 0 0 0 0 0 0 0 0 0 0 0 0 0 0 0 0 0 0 0 0 0 0 0 0 0 0 0 0 0 0 0 0 0 0 0 0 0 0 0 0 0 0 0
0 0 0 0 0 0 0 0 0 0 0 0 0 0 0 0 0 0 0 0 0 0 0 0 0 0 0 0 0 0 0 0 0 0 0 0 0 0 0 0 0 0 0 0 0 0 0 0 0 0 0 0 0 0 0 0 0 0 0 0 0 0 0 0 0 0 0 0 0 0 0 0 0 0 0 0 0 0 0 0 0 0 0 0 0 0 0 0 0 0 0 0 0
0 0 0 0 0 0 0 0 0 0 0 0 0 0 0 0 0 0 0 0 0 0 0 0 0 0 0 0 0 0 0 0 0 0 0 0 0 0 0 0 0 0 0 0 0 0 0 0 0 0 0 0 0 0 0 0 0 0 0 0 0 0 0 0 0 0 0 0 0 0 0 0 0 0 0 0 0 0 0 0 0 0 0 0 0 0 0 0 0 0 0 0 0
0 0 0 0 0 0 0 0 0 0 0 0 0 0 0 0 0 0 0 0 0 0 0 0 0 0 0 0 0 0 0 0 0 0 0 0 0 0 0 0 0 0 0 0 0 0 0 0 0 0 0 0 0 0 0 0 0 0 0 0 0 0 0 0 0 0 0 0 0 0 0 0 0 0 0 0 0 0 0 0 0 0 0 0 0 0 0 0 0 0 0 0 0
0 0 0 0 0 0 0 0 0 0 0 0 0 0 0 0 0 0 0 0 0 0 0 0 0 0 0 0 0 0 0 0 0 0 0 0 0 0 0 0 0 0 0 0 0 0 0 0 0 0 0 0 0 0 0 0 0 0 0 0 0 0 0 0 0 0 0 0 0 0 0 0 0 0 0 0 0 0 0 0 0 0 0 0 0 0 0 0 0 0 0 0 0
0 0 0 0 0 0 0 0 0 0 0 0 0 0 0 0 0 0 0 0 0 0 0 0 0 0 0 0 0 0 0 0 0 0 0 0 0 0 0 0 0 0 0 0 0 0 0 0 0 0 0 0 0 0 0 0 0 0 0 0 0 0 0 0 0 0 0 0 0 0 0 0 0 0 0 0 0 0 0 0 0 0 0 0 0 0 0 0 0 0 0 0 0
